; generated by PrusaSlicer 2.5.0+win64 on 2023-02-24 at 13:01:15 UTC


;
;
; 

; external perimeters extrusion width = 0.45mm
; perimeters extrusion width = 0.45mm
; infill extrusion width = 0.45mm
; solid infill extrusion width = 0.45mm
; top infill extrusion width = 0.40mm
; first layer extrusion width = 0.45mm

; external perimeters extrusion width = 0.45mm
; perimeters extrusion width = 0.45mm
; infill extrusion width = 0.45mm
; solid infill extrusion width = 0.45mm
; top infill extrusion width = 0.40mm
; first layer extrusion width = 0.45mm

; external perimeters extrusion width = 0.45mm
; perimeters extrusion width = 0.45mm
; infill extrusion width = 0.45mm
; solid infill extrusion width = 0.45mm
; top infill extrusion width = 0.40mm
; first layer extrusion width = 0.45mm

; external perimeters extrusion width = 0.45mm
; perimeters extrusion width = 0.45mm
; infill extrusion width = 0.45mm
; solid infill extrusion width = 0.45mm
; top infill extrusion width = 0.40mm
; first layer extrusion width = 0.45mm

; external perimeters extrusion width = 0.45mm
; perimeters extrusion width = 0.45mm
; infill extrusion width = 0.45mm
; solid infill extrusion width = 0.45mm
; top infill extrusion width = 0.40mm
; first layer extrusion width = 0.45mm

M73 P0 R27
M73 Q0 S27
M201 X1000 Y1000 Z200 E8000 ; sets maximum accelerations, mm/sec^2
M203 X200 Y200 Z12 E120 ; sets maximum feedrates, mm / sec
M204 P1250 R1250 T1250 ; sets acceleration (P, T) and retract acceleration (R), mm/sec^2
M205 X8.00 Y8.00 Z0.40 E4.50 ; sets the jerk limits, mm/sec
M205 S0 T0 ; sets the minimum extruding and travel feed rate, mm/sec
M107
;TYPE:Custom
M862.3 P "MK3SMMU2S" ; printer model check
M862.1 P0.4 ; nozzle diameter check
M115 U3.11.0 ; tell printer latest fw version
G90 ; use absolute coordinates
M83 ; extruder relative mode
M104 S215 ; set extruder temp
M140 S60 ; set bed temp
M190 S60 ; wait for bed temp
M109 S215 ; wait for extruder temp
G28 W ; home all without mesh bed level
G80 ; mesh bed leveling

; Send the filament type to the MMU2.0 unit.
; E stands for extruder number, F stands for filament type (0: default; 1:flex; 2: PVA)
M403 E0 F0
M403 E1 F0
M403 E2 F0
M403 E3 F0
M403 E4 F0


;go outside print area
G1 Y-3 F1000
G1 Z0.4 F1000
; select extruder
T0
; initial load
G1 X55 E29 F1073
G1 X5 E29 F1800
M73 P0 R26
G1 X55 E8 F2000
G1 Z0.3 F1000
G92 E0
G1 X240 E25 F2200
G1 Y-2 F1000
M73 Q0 S26
G1 X55 E25 F1400
G1 Z0.2 F1000
M73 P1 R26
M73 Q1 S26
G1 X5 E4 F1000
G92 E0


M221 S95
G92 E0

; Don't change E values below. Excessive value can damage the printer.
M907 E430 ; set extruder motor current
G21 ; set units to millimeters
G90 ; use absolute coordinates
M83 ; use relative distances for extrusion
T0
M900 K0.05 ; Filament gcode LA 1.5
M900 K30 ; Filament gcode LA 1.0
G1 Z.2 F720
M107
;LAYER_CHANGE
;Z:0.2
;HEIGHT:0.2
;BEFORE_LAYER_CHANGE
G92 E0.0
;0.2


G1 E-.8 F2100
G1 Z.6 F720
G1 Z.2
;AFTER_LAYER_CHANGE
;0.2
G1 Z.6
G1 X104.553 Y69.688 F10800
G1 Z.2 F720
G1 E.8 F2100
M204 S800
;TYPE:Skirt/Brim
;WIDTH:0.45
;HEIGHT:0.2
G1 F1200
G1 X105.189 Y68.733 E.03881
G1 X106.029 Y67.737 E.0441
G1 X106.92 Y66.84 E.04281
G1 X108.735 Y65.38 E.07885
G1 X110.171 Y64.494 E.05711
G1 X111.445 Y63.872 E.04799
G1 X113.011 Y63.295 E.05651
G1 X114.365 Y62.953 E.04727
G1 X132.423 Y60.492 E.61689
G1 X196.537 Y60.492 E2.17017
G1 X197.853 Y60.883 E.04648
G1 X198.741 Y61.931 E.04648
G1 X198.944 Y62.899 E.03347
G1 X198.944 Y142.372 E2.69009
G1 X198.552 Y143.688 E.04648
M73 P2 R26
M73 Q2 S26
G1 X197.504 Y144.576 E.04648
G1 X196.537 Y144.779 E.03347
G1 X132.423 Y144.779 E2.17017
G1 X131.64 Y144.649 E.02686
G1 X101.598 Y134.312 E1.0754
G1 X100.363 Y133.723 E.04633
G1 X99.364 Y133.047 E.04082
G1 X98.356 Y132.121 E.04633
G1 X97.599 Y131.182 E.04082
G1 X97.028 Y130.238 E.03736
G1 X96.581 Y129.229 E.03736
G1 X96.266 Y128.171 E.03736
G1 X96.091 Y127.112 E.03636
G1 X94.131 Y106.425 E.70335
G1 X94.301 Y101.94 E.15194
G1 X94.467 Y100.406 E.0522
G1 X94.775 Y99.056 E.04688
G1 X101.408 Y76.625 E.79176
G1 X102.518 Y73.417 E.11492
G1 X103.715 Y70.945 E.09296
G1 X104.52 Y69.737 E.04911
M204 S1000
; printing object prusa_clippy_V3.stl id:0 copy 0
;WIPE_START
G1 F8640
G1 X105.189 Y68.733 E-.2786
G1 X106.029 Y67.737 E-.30087
G1 X106.58 Y67.183 E-.18054
;WIPE_END
G1 E-.04 F2100
G1 Z.6 F720
G1 X122.076 Y108.144 F10800
G1 Z.2 F720
G1 E.8 F2100
M204 S800
;TYPE:Perimeter
;WIDTH:0.449999
G1 F1200
G1 X121.967 Y108.969 E.02819
G1 X121.735 Y109.855 E.03099
G1 X121.553 Y110.324 E.01702
G1 X121.323 Y110.794 E.01773
G1 X120.815 Y111.552 E.03089
G1 X120.198 Y112.205 E.03041
G1 X119.788 Y112.548 E.01808
G1 X119.282 Y112.892 E.02072
G1 X118.845 Y113.136 E.01695
G1 X118.372 Y113.358 E.01767
G1 X117.884 Y113.546 E.01772
G1 X117.38 Y113.701 E.01783
G1 X116.796 Y113.836 E.0203
G1 X116.077 Y113.944 E.02461
G1 X115.561 Y113.98 E.01752
G1 X114.959 Y113.975 E.02035
G1 X114.29 Y113.918 E.02275
G1 X113.791 Y113.834 E.01711
G1 X113.219 Y113.682 E.02005
G1 X112.592 Y113.447 E.02267
G1 X111.984 Y113.141 E.02304
G1 X111.564 Y112.866 E.01699
G1 X111.158 Y112.542 E.01759
G1 X110.739 Y112.134 E.0198
G1 X111.69 Y111.97 E.03266
G1 X112.211 Y111.813 E.01842
G1 X112.587 Y112.074 E.01549
G1 X113.04 Y112.31 E.01728
G1 X113.703 Y112.541 E.02378
G1 X114.472 Y112.693 E.02652
G1 X115.126 Y112.737 E.02219
G1 X115.97 Y112.694 E.02862
G1 X116.81 Y112.55 E.02884
G1 X117.514 Y112.348 E.02479
G1 X118.278 Y112.029 E.02803
G1 X119.03 Y111.559 E.03
G1 X119.465 Y111.21 E.01887
G1 X119.911 Y110.73 E.02219
G1 X120.278 Y110.176 E.02249
G1 X120.561 Y109.496 E.02494
G1 X120.765 Y108.661 E.0291
G1 X121.608 Y108.36 E.03031
G1 X122.021 Y108.169 E.01542
M204 S1000
G1 X122.513 Y107.475 F10800
M204 S800
;TYPE:External perimeter
G1 F1200
G1 X122.505 Y107.885 E.0139
G1 X122.404 Y108.798 E.0311
G1 X122.275 Y109.401 E.02087
G1 X122.102 Y110.035 E.02224
G1 X121.895 Y110.556 E.01897
G1 X121.566 Y111.163 E.02338
G1 X121.023 Y111.924 E.03164
G1 X120.399 Y112.573 E.03046
G1 X119.994 Y112.901 E.01765
G1 X119.459 Y113.26 E.0218
G1 X119.019 Y113.504 E.01705
G1 X118.52 Y113.738 E.01865
G1 X117.958 Y113.95 E.02033
G1 X117.473 Y114.098 E.01714
G1 X116.857 Y114.239 E.02139
G1 X116.107 Y114.35 E.02568
G1 X115.563 Y114.387 E.01844
G1 X114.928 Y114.38 E.02149
G1 X114.224 Y114.32 E.02394
G1 X113.693 Y114.229 E.01821
G1 X113.089 Y114.068 E.02116
G1 X112.431 Y113.821 E.02381
G1 X112.186 Y113.711 E.00909
G1 X111.738 Y113.467 E.01727
G1 X111.293 Y113.171 E.0181
G1 X110.877 Y112.837 E.01804
G1 X110.487 Y112.464 E.01827
G1 X109.981 Y111.858 E.02672
G1 X111.646 Y111.562 E.05727
G1 X112.293 Y111.362 E.0229
G1 X112.699 Y111.672 E.01729
G1 X113.178 Y111.927 E.01836
G1 X113.787 Y112.143 E.02189
G1 X114.502 Y112.287 E.02469
G1 X115.107 Y112.33 E.02054
G1 X115.904 Y112.293 E.02698
G1 X116.7 Y112.158 E.02735
G1 X117.36 Y111.972 E.0232
G1 X118.076 Y111.676 E.02621
G1 X118.636 Y111.352 E.02192
G1 X119.17 Y110.929 E.02306
G1 X119.575 Y110.502 E.01991
G1 X119.908 Y110.005 E.02024
G1 X120.17 Y109.383 E.02284
G1 X120.325 Y108.838 E.01919
G1 X120.403 Y108.335 E.01724
G1 X120.747 Y108.244 E.01205
G1 X121.224 Y108.07 E.01721
G1 X121.705 Y107.867 E.01765
G1 X122.459 Y107.501 E.02837
M204 S1000
G1 X122.36 Y107.844 F10800
;WIPE_START
G1 F8640
G1 X122.505 Y107.885 E-.08937
G1 X122.404 Y108.798 E-.21213
G1 X122.275 Y109.401 E-.14239
G1 X122.102 Y110.035 E-.15174
G1 X121.895 Y110.556 E-.12941
G1 X121.823 Y110.689 E-.03496
;WIPE_END
G1 E-.04 F2100
G1 Z.6 F720
G1 X109.898 Y108.1 F10800
G1 Z.2 F720
G1 E.8 F2100
M204 S800
;TYPE:Perimeter
G1 F1200
G1 X109.233 Y108.066 E.02254
G1 X108.453 Y107.963 E.02664
G1 X108.117 Y107.207 E.028
G1 X109.288 Y106.759 E.04243
G1 X109.872 Y108.046 E.04784
M204 S1000
G1 X110.52 Y108.457 F10800
M204 S800
;TYPE:External perimeter
G1 F1200
G1 X110.297 Y108.504 E.0077
G1 X109.474 Y108.51 E.02784
G1 X108.179 Y108.349 E.04418
G1 X107.56 Y106.957 E.05156
G1 X108.627 Y106.586 E.03822
G1 X109.487 Y106.202 E.0319
G1 X110.006 Y107.38 E.04358
G1 X110.494 Y108.403 E.03835
M204 S1000
G1 X110.299 Y108.403 F10800
;WIPE_START
G1 F8640
G1 X110.297 Y108.504 E-.05109
G1 X109.474 Y108.51 E-.18994
G1 X108.179 Y108.349 E-.30138
G1 X107.796 Y107.488 E-.21758
;WIPE_END
G1 E-.04 F2100
G1 Z.6 F720
G1 X120.913 Y104.067 F10800
G1 Z.2 F720
G1 E.8 F2100
M204 S800
;TYPE:Perimeter
;WIDTH:0.308468
G1 F1200
G1 X120.513 Y104.308 E.01031
G1 X120.275 Y104.4 E.00563
G1 X120.195 Y104.098 E.0069
G1 X120.853 Y104.069 E.01453
M204 S1000
;WIPE_START
G1 F8640
G1 X120.513 Y104.308 E-.09592
G1 X120.275 Y104.4 E-.05892
G1 X120.195 Y104.098 E-.0722
G1 X120.853 Y104.069 E-.15199
;WIPE_END
G1 E-.42097 F2100
G1 Z.6 F720
G1 X121.928 Y103.629 F10800
G1 Z.2 F720
G1 E.8 F2100
M204 S800
;TYPE:External perimeter
;WIDTH:0.449999
G1 F1200
G1 X121.893 Y103.685 E.00225
G1 X121.369 Y104.183 E.02446
G1 X120.651 Y104.618 E.0284
G1 X120.045 Y104.846 E.02193
G1 X119.763 Y103.778 E.0374
G1 X120.835 Y103.736 E.03633
G1 X121.868 Y103.635 E.03514
M204 S1000
G1 X121.877 Y103.672 F10800
;WIPE_START
G1 F8640
G1 X121.893 Y103.685 E-.01295
G1 X121.369 Y104.183 E-.16683
G1 X120.651 Y104.618 E-.19377
G1 X120.045 Y104.846 E-.14959
G1 X119.783 Y103.854 E-.23687
;WIPE_END
G1 E-.04 F2100
G1 Z.6 F720
G1 X106.397 Y95.857 F10800
G1 Z.2 F720
G1 E.8 F2100
M204 S800
;TYPE:Perimeter
G1 F1200
M73 Q3 S26
G1 X105.688 Y95.786 E.02413
G1 X105.149 Y95.775 E.01824
G1 X105.088 Y95.122 E.02221
G1 X104.989 Y93.59 E.05196
G1 X104.947 Y92.386 E.04079
G1 X104.94 Y90.802 E.05363
M73 P3 R26
G1 X104.969 Y89.638 E.03939
G1 X105.05 Y88.106 E.05194
G1 X105.148 Y86.888 E.04136
G1 X105.307 Y85.407 E.05041
G1 X105.504 Y83.951 E.04975
G1 X105.738 Y82.492 E.04999
G1 X106.022 Y80.988 E.05182
G1 X106.347 Y79.553 E.04982
G1 X106.614 Y78.54 E.03547
G1 X106.929 Y77.494 E.03696
G1 X107.331 Y76.334 E.04156
G1 X107.743 Y75.305 E.0375
G1 X108.217 Y74.291 E.03789
G1 X108.606 Y73.572 E.02769
G1 X109.018 Y72.902 E.0266
G1 X109.47 Y72.259 E.0266
G1 X109.981 Y71.627 E.02754
G1 X110.419 Y71.153 E.02183
G1 X111.017 Y70.591 E.02778
G1 X111.556 Y70.156 E.02343
G1 X112.272 Y69.666 E.02939
G1 X112.918 Y69.296 E.02518
G1 X113.537 Y68.999 E.02324
G1 X114.227 Y68.727 E.02513
G1 X115.054 Y68.478 E.02921
G1 X115.718 Y68.338 E.02298
G1 X116.462 Y68.241 E.02539
G1 X117.162 Y68.211 E.02372
G1 X117.745 Y68.231 E.01974
G1 X118.281 Y68.29 E.01826
G1 X118.819 Y68.389 E.01851
G1 X119.351 Y68.528 E.01861
G1 X119.872 Y68.704 E.01863
G1 X120.379 Y68.918 E.01862
G1 X120.849 Y69.158 E.01786
G1 X121.295 Y69.426 E.01761
G1 X121.739 Y69.74 E.01841
G1 X122.142 Y70.076 E.01776
G1 X122.799 Y70.759 E.03207
G1 X123.137 Y71.198 E.01875
G1 X123.441 Y71.663 E.0188
G1 X123.71 Y72.146 E.01872
G1 X123.946 Y72.645 E.01869
G1 X124.152 Y73.156 E.01864
G1 X124.328 Y73.675 E.01856
G1 X124.477 Y74.199 E.01844
G1 X124.707 Y75.281 E.03743
G1 X124.798 Y75.905 E.02137
G1 X124.919 Y77.241 E.04539
G1 X124.955 Y78.473 E.04173
G1 X124.927 Y79.685 E.04104
G1 X124.862 Y80.707 E.03467
G1 X124.661 Y83.092 E.081
G1 X124.604 Y84.314 E.04139
G1 X124.611 Y84.983 E.02265
G1 X124.671 Y85.776 E.02694
G1 X124.773 Y86.625 E.02895
G1 X124.935 Y87.45 E.02843
G1 X125.15 Y88.256 E.02826
G1 X125.304 Y88.748 E.01743
G1 X125.532 Y89.35 E.02178
G1 X125.789 Y89.898 E.02052
G1 X126.031 Y90.339 E.01702
G1 X126.313 Y90.787 E.01792
G1 X126.714 Y91.283 E.02158
G1 X127.13 Y91.706 E.02009
G1 X127.376 Y92.038 E.01401
G1 X127.418 Y92.318 E.00956
G1 X127.284 Y92.563 E.00945
G1 X127.093 Y92.714 E.00825
G1 X126.821 Y92.811 E.00978
G1 X126.555 Y92.763 E.00914
G1 X126.272 Y92.577 E.01147
G1 X125.6 Y91.885 E.03264
G1 X125.25 Y91.426 E.01955
G1 X124.966 Y90.986 E.01773
G1 X124.668 Y90.444 E.02093
G1 X124.376 Y89.81 E.02361
G1 X124.129 Y89.164 E.02341
G1 X123.953 Y88.614 E.01955
G1 X123.71 Y87.666 E.03311
G1 X123.538 Y86.74 E.03189
G1 X123.434 Y85.906 E.02847
G1 X123.371 Y84.854 E.03566
G1 X123.369 Y84.245 E.02061
G1 X123.396 Y83.48 E.02591
G1 X123.619 Y80.662 E.09569
G1 X123.692 Y79.289 E.04652
G1 X123.698 Y77.887 E.04747
G1 X123.634 Y76.675 E.04109
G1 X123.487 Y75.475 E.0409
G1 X123.383 Y74.98 E.01714
G1 X123.146 Y74.053 E.0324
G1 X122.818 Y73.151 E.03246
G1 X122.571 Y72.623 E.01975
G1 X122.29 Y72.147 E.01871
G1 X121.86 Y71.577 E.02416
G1 X121.325 Y71.011 E.02636
G1 X120.628 Y70.45 E.03029
G1 X119.93 Y70.052 E.02718
G1 X118.941 Y69.683 E.03573
G1 X118.166 Y69.519 E.02683
G1 X117.05 Y69.448 E.03784
G1 X116.483 Y69.479 E.01922
G1 X115.917 Y69.554 E.01932
G1 X115.356 Y69.672 E.01941
G1 X114.803 Y69.83 E.01949
G1 X114.259 Y70.028 E.01959
G1 X113.726 Y70.265 E.01975
G1 X113.237 Y70.524 E.01872
G1 X112.73 Y70.836 E.02016
G1 X112.272 Y71.162 E.01903
G1 X111.802 Y71.545 E.02053
G1 X111.307 Y72.015 E.0231
G1 X110.921 Y72.429 E.01914
G1 X110.464 Y72.999 E.02472
G1 X110.122 Y73.468 E.01966
G1 X109.797 Y73.978 E.02048
G1 X109.496 Y74.505 E.02054
G1 X109.23 Y75.022 E.01967
G1 X108.89 Y75.76 E.0275
G1 X108.462 Y76.838 E.03926
G1 X108.095 Y77.923 E.03879
G1 X107.712 Y79.253 E.04686
G1 X107.433 Y80.377 E.03916
G1 X107.168 Y81.605 E.04255
G1 X106.879 Y83.169 E.05383
G1 X106.695 Y84.353 E.04055
G1 X106.497 Y85.881 E.05215
G1 X106.334 Y87.538 E.05638
G1 X106.253 Y88.702 E.03949
G1 X106.187 Y90.299 E.05409
G1 X106.174 Y91.506 E.04084
G1 X106.194 Y92.737 E.04167
G1 X106.267 Y94.294 E.05276
G1 X106.392 Y95.797 E.05107
M204 S1000
G1 X106.861 Y96.37 F10800
M204 S800
;TYPE:External perimeter
G1 F1200
G1 X106.404 Y96.268 E.01584
G1 X105.868 Y96.201 E.01828
G1 X105.287 Y96.177 E.01968
G1 X104.78 Y96.203 E.01717
G1 X104.682 Y95.154 E.03567
G1 X104.582 Y93.611 E.05237
G1 X104.54 Y92.394 E.0412
G1 X104.533 Y90.798 E.05404
G1 X104.562 Y89.622 E.03979
G1 X104.644 Y88.079 E.05233
G1 X104.743 Y86.85 E.04173
G1 X104.903 Y85.358 E.05078
G1 X105.101 Y83.891 E.05011
G1 X105.336 Y82.422 E.05035
G1 X105.624 Y80.905 E.05226
G1 X105.952 Y79.456 E.0503
G1 X106.222 Y78.429 E.03595
G1 X106.542 Y77.369 E.03748
G1 X106.95 Y76.192 E.04217
G1 X107.369 Y75.143 E.03821
G1 X107.853 Y74.108 E.03868
G1 X108.253 Y73.368 E.02848
G1 X108.678 Y72.678 E.02741
G1 X109.145 Y72.014 E.02748
G1 X109.673 Y71.36 E.02845
G1 X110.13 Y70.866 E.02278
G1 X110.749 Y70.284 E.02879
G1 X111.313 Y69.829 E.0245
G1 X112.056 Y69.321 E.03048
G1 X112.728 Y68.936 E.02623
G1 X113.374 Y68.625 E.02425
G1 X114.094 Y68.342 E.02621
G1 X114.953 Y68.084 E.03036
G1 X115.65 Y67.936 E.02411
G1 X116.427 Y67.835 E.02653
G1 X117.16 Y67.804 E.02484
G1 X117.774 Y67.825 E.0208
G1 X118.341 Y67.887 E.01928
G1 X118.908 Y67.991 E.01951
G1 X119.468 Y68.137 E.0196
G1 X120.017 Y68.324 E.01962
G1 X120.551 Y68.549 E.01962
G1 X121.067 Y68.812 E.0196
G1 X121.518 Y69.085 E.01786
G1 X121.987 Y69.417 E.01945
G1 X122.42 Y69.778 E.01906
G1 X123.108 Y70.493 E.03359
G1 X123.469 Y70.962 E.02004
G1 X123.789 Y71.452 E.01981
G1 X124.072 Y71.959 E.01966
G1 X124.319 Y72.481 E.01956
G1 X124.534 Y73.014 E.01944
G1 X124.717 Y73.554 E.01929
G1 X124.871 Y74.096 E.0191
G1 X125.108 Y75.213 E.03864
G1 X125.202 Y75.858 E.02204
G1 X125.325 Y77.217 E.04619
G1 X125.362 Y78.472 E.04251
G1 X125.334 Y79.703 E.04168
G1 X125.268 Y80.737 E.03509
G1 X125.066 Y83.126 E.08115
G1 X125.011 Y84.31 E.04011
G1 X125.017 Y84.96 E.02203
G1 X125.076 Y85.729 E.02607
G1 X125.173 Y86.548 E.02792
G1 X125.329 Y87.35 E.02767
G1 X125.479 Y87.941 E.02065
G1 X125.685 Y88.605 E.0235
G1 X125.902 Y89.181 E.02086
G1 X126.249 Y89.917 E.02753
G1 X126.63 Y90.533 E.02453
G1 X127.079 Y91.074 E.02379
G1 X127.59 Y91.614 E.02516
G1 X127.804 Y92.006 E.01514
G1 X127.819 Y92.401 E.01338
G1 X127.714 Y92.645 E.00897
G1 X127.445 Y92.974 E.01439
G1 X127.082 Y93.166 E.01389
G1 X126.752 Y93.225 E.01136
G1 X126.393 Y93.136 E.01251
G1 X126.047 Y92.925 E.01374
G1 X125.639 Y92.535 E.01908
G1 X125.286 Y92.144 E.01784
G1 X124.917 Y91.66 E.02061
G1 X124.616 Y91.195 E.01875
G1 X124.304 Y90.627 E.02192
G1 X124.001 Y89.968 E.02456
G1 X123.745 Y89.299 E.02424
G1 X123.562 Y88.727 E.02034
G1 X123.312 Y87.754 E.03398
G1 X123.135 Y86.803 E.03277
G1 X123.028 Y85.943 E.02932
G1 X122.964 Y84.867 E.03649
G1 X122.962 Y84.239 E.02127
G1 X122.989 Y83.457 E.02648
G1 X123.213 Y80.63 E.09599
G1 X123.285 Y79.291 E.04539
G1 X123.292 Y77.908 E.0468
