; generated by PrusaSlicer 2.6.0-alpha4+win64 on 2023-02-27 at 15:26:20 UTC


;
;
; 

; external perimeters extrusion width = 0.45mm
; perimeters extrusion width = 0.45mm
; infill extrusion width = 0.45mm
; solid infill extrusion width = 0.45mm
; top infill extrusion width = 0.40mm
; first layer extrusion width = 0.42mm

; external perimeters extrusion width = 0.45mm
; perimeters extrusion width = 0.45mm
; infill extrusion width = 0.45mm
; solid infill extrusion width = 0.45mm
; top infill extrusion width = 0.40mm
; first layer extrusion width = 0.42mm

; external perimeters extrusion width = 0.45mm
; perimeters extrusion width = 0.45mm
; infill extrusion width = 0.45mm
; solid infill extrusion width = 0.45mm
; top infill extrusion width = 0.40mm
; first layer extrusion width = 0.42mm

M73 P0 R38
M73 Q0 S38
M201 X1000 Y1000 Z200 E8000 ; sets maximum accelerations, mm/sec^2
M203 X200 Y200 Z12 E120 ; sets maximum feedrates, mm / sec
M204 P1250 R1250 T1250 ; sets acceleration (P, T) and retract acceleration (R), mm/sec^2
M205 X8.00 Y8.00 Z0.40 E4.50 ; sets the jerk limits, mm/sec
M205 S0 T0 ; sets the minimum extruding and travel feed rate, mm/sec
M107
;TYPE:Custom
M862.3 P "MK3SMMU2S" ; printer model check
M862.1 P0.4 ; nozzle diameter check
M115 U3.12.1 ; tell printer latest fw version
G90 ; use absolute coordinates
M83 ; extruder relative mode
M104 S215 ; set extruder temp
M140 S60 ; set bed temp
M190 S60 ; wait for bed temp
M109 S215 ; wait for extruder temp
G28 W ; home all without mesh bed level
G80 ; mesh bed leveling

; Send the filament type to the MMU2.0 unit.
; E stands for extruder number, F stands for filament type (0: default; 1:flex; 2: PVA)
M403 E0 F0
M403 E1 F0
M403 E2 F0
M403 E3 F0
M403 E4 F0


;go outside print area
G1 Y-3 F1000
G1 Z0.4 F1000
; select extruder
T0
; initial load
G1 X55 E29 F1073
G1 X5 E29 F1800
G1 X55 E8 F2000
G1 Z0.3 F1000
G92 E0
G1 X240 E25 F2200
G1 Y-2 F1000
G1 X55 E25 F1400
G1 Z0.2 F1000
G1 X5 E4 F1000
G92 E0


M221 S95
G92 E0

; Don't change E values below. Excessive value can damage the printer.
M907 E430 ; set extruder motor current
G21 ; set units to millimeters
G90 ; use absolute coordinates
M83 ; use relative distances for extrusion
T0
M900 K0.05 ; Filament gcode LA 1.5
M900 K30 ; Filament gcode LA 1.0
G1 Z.2 F720
M107
;LAYER_CHANGE
;Z:0.2
;HEIGHT:0.2
;BEFORE_LAYER_CHANGE
G92 E0.0
;0.2


G1 E-.8 F2100
G1 Z.6 F720
G1 Z.2
;AFTER_LAYER_CHANGE
;0.2
G1 Z.6
G1 X69.438 Y86.774 F10800
G1 Z.2 F720
M73 P1 R38
M73 Q1 S38
G1 E.8 F2100
M204 S800
;TYPE:Skirt/Brim
;WIDTH:0.42
;HEIGHT:0.2
G1 F1200
G1 X70.378 Y86.58 E.03009
G1 X134.683 Y86.588 E2.01624
G1 X153.926 Y88.146 E.60533
G1 X156.231 Y88.493 E.07309
G1 X157.585 Y88.848 E.04389
G1 X158.846 Y89.288 E.04188
G1 X161.01 Y90.315 E.0751
G1 X162.148 Y91.014 E.04187
G1 X163.279 Y91.837 E.04386
G1 X165.051 Y93.449 E.07511
G1 X166.227 Y94.814 E.05649
G1 X167.074 Y96.007 E.04587
G1 X167.975 Y97.567 E.05648
G1 X168.733 Y99.272 E.0585
G1 X169.196 Y100.66 E.04588
G1 X169.615 Y102.477 E.05847
G1 X169.832 Y104.266 E.0565
G1 X169.871 Y105.729 E.04589
G1 X169.75 Y107.526 E.05647
G1 X169.43 Y109.364 E.0585
G1 X169.041 Y110.775 E.04589
G1 X168.403 Y112.46 E.05649
G1 X167.561 Y114.124 E.05847
G1 X166.779 Y115.361 E.04589
G1 X165.677 Y116.787 E.05651
G1 X164.388 Y118.134 E.05846
G1 X162.585 Y119.612 E.0731
G1 X160.543 Y120.865 E.07512
G1 X158.409 Y121.803 E.07309
G1 X157.075 Y122.226 E.04388
G1 X155.774 Y122.528 E.04188
G1 X153.863 Y122.787 E.06047
G1 X134.649 Y124.063 E.60377
G1 X70.378 Y124.068 E2.01517
G1 X69.071 Y123.676 E.04278
G1 X68.194 Y122.631 E.04277
G1 X68.001 Y121.691 E.03009
G1 X68.001 Y88.957 E1.02635
G1 X68.392 Y87.65 E.04277
M73 P1 R37
G1 X69.392 Y86.812 E.04091
M204 S1000
; printing object MMU_3_COLOR_TEST.stl id:0 copy 0
;WIPE_START
G1 F8640
G1 X70.378 Y86.58 E-.23389
G1 X72.83 Y86.58 E-.56611
;WIPE_END
G1 Z.6 F720
G1 X151.909 Y115.221 F10800
G1 Z.2 F720
G1 E.8 F2100
M204 S800
;TYPE:Perimeter
;WIDTH:0.419999
G1 F1200
G1 X151.909 Y119.652 E.13893
G1 X151.349 Y119.63 E.01757
G1 X150.594 Y119.548 E.02381
G1 X149.844 Y119.427 E.02382
G1 X148.726 Y119.167 E.03599
G1 X147.631 Y118.818 E.03603
G1 X146.925 Y118.539 E.0238
G1 X146.235 Y118.223 E.0238
G1 X145.222 Y117.673 E.03614
G1 X144.584 Y117.27 E.02366
G1 X143.653 Y116.59 E.03615
G1 X143.074 Y116.104 E.0237
G1 X142.246 Y115.309 E.03599
G1 X141.485 Y114.449 E.03601
G1 X141.02 Y113.848 E.02383
G1 X140.587 Y113.22 E.02392
G1 X140.19 Y112.573 E.0238
G1 X139.654 Y111.553 E.03613
G1 X139.349 Y110.862 E.02368
G1 X138.956 Y109.783 E.03601
G1 X138.652 Y108.679 E.0359
G1 X138.438 Y107.551 E.036
G1 X138.347 Y106.801 E.02369
G1 X138.285 Y105.65 E.03614
G1 X138.295 Y104.895 E.02367
G1 X138.387 Y103.75 E.03602
G1 X138.571 Y102.621 E.03587
G1 X138.845 Y101.509 E.03591
G1 X139.207 Y100.424 E.03586
G1 X139.656 Y99.371 E.03589
G1 X139.915 Y98.878 E.01746
G1 X143.744 Y101.089 E.13863
G1 X143.415 Y101.816 E.02502
G1 X143.182 Y102.458 E.02141
G1 X142.995 Y103.115 E.02142
G1 X142.855 Y103.784 E.02143
G1 X142.761 Y104.46 E.0214
G1 X142.722 Y105.567 E.03473
G1 X142.735 Y106.166 E.01879
G1 X142.807 Y106.845 E.02141
G1 X142.958 Y107.642 E.02543
G1 X143.094 Y108.18 E.0174
G1 X143.306 Y108.829 E.02141
G1 X143.64 Y109.619 E.02689
G1 X144.02 Y110.335 E.02542
G1 X144.393 Y110.952 E.02261
G1 X144.864 Y111.582 E.02466
G1 X145.477 Y112.283 E.0292
G1 X146.352 Y113.072 E.03694
G1 X147.056 Y113.599 E.02757
G1 X147.616 Y113.947 E.02067
G1 X148.188 Y114.251 E.02031
G1 X149.177 Y114.67 E.03368
G1 X150.16 Y114.967 E.0322
G1 X150.816 Y115.105 E.02102
G1 X151.849 Y115.214 E.03257
M204 S1000
G1 X152.286 Y115.208 F10800
M204 S800
;TYPE:External perimeter
G1 F1200
G1 X152.286 Y120.045 E.15166
G1 X151.321 Y120.006 E.03028
G1 X150.543 Y119.922 E.02454
G1 X149.771 Y119.797 E.02452
G1 X148.626 Y119.531 E.03686
G1 X147.505 Y119.173 E.0369
G1 X146.777 Y118.886 E.02454
G1 X146.066 Y118.56 E.02452
G1 X145.031 Y117.999 E.03691
G1 X144.371 Y117.582 E.02448
G1 X143.42 Y116.887 E.03693
G1 X142.822 Y116.385 E.02448
G1 X141.974 Y115.57 E.03688
G1 X141.194 Y114.69 E.03687
G1 X140.716 Y114.071 E.02452
G1 X140.271 Y113.426 E.02457
G1 X139.862 Y112.76 E.02451
G1 X139.314 Y111.717 E.03694
G1 X138.999 Y111.003 E.02447
G1 X138.596 Y109.897 E.03691
G1 X138.285 Y108.765 E.03681
G1 X138.065 Y107.609 E.0369
G1 X137.971 Y106.834 E.02448
G1 X137.908 Y105.658 E.03693
G1 X137.918 Y104.877 E.02449
G1 X138.013 Y103.705 E.03687
G1 X138.201 Y102.545 E.03685
G1 X138.482 Y101.404 E.03684
G1 X138.854 Y100.29 E.03682
G1 X139.315 Y99.209 E.03685
G1 X139.763 Y98.355 E.03024
G1 X144.248 Y100.944 E.16237
G1 X144.036 Y101.344 E.01419
G1 X143.769 Y101.945 E.02062
G1 X143.545 Y102.562 E.02058
G1 X143.364 Y103.193 E.02058
G1 X143.228 Y103.836 E.02061
G1 X143.137 Y104.486 E.02058
G1 X143.099 Y105.56 E.0337
G1 X143.11 Y106.126 E.01775
G1 X143.179 Y106.78 E.02062
G1 X143.324 Y107.551 E.0246
G1 X143.453 Y108.064 E.01659
G1 X143.656 Y108.688 E.02057
G1 X143.979 Y109.454 E.02607
G1 X144.343 Y110.14 E.02435
G1 X144.699 Y110.731 E.02163
G1 X145.149 Y111.335 E.02362
G1 X145.734 Y112.007 E.02794
G1 X146.579 Y112.771 E.03572
G1 X147.256 Y113.279 E.02654
G1 X147.797 Y113.616 E.01998
G1 X148.81 Y114.108 E.03531
G1 X149.287 Y114.309 E.01623
G1 X150.239 Y114.598 E.03119
G1 X150.869 Y114.732 E.0202
G1 X151.523 Y114.823 E.0207
G1 X152.286 Y114.863 E.02396
G1 X152.286 Y115.148 E.00894
M204 S1000
G1 X152.035 Y115.519 F10800
;WIPE_START
G1 F8640
G1 X152.286 Y118.613 E-.8
;WIPE_END
G1 Z.6 F720
G1 X143.281 Y101.7 F10800
G1 Z.2 F720
M73 Q1 S37
G1 E.8 F2100
M204 S800
;TYPE:Solid infill
;WIDTH:0.427958
G1 F1200
G1 X142.128 Y100.547 E.0522
G1 X140.839 Y99.803 E.04765
G1 X143 Y101.964 E.09784
G1 X142.856 Y102.365 E.01364
G1 X139.978 Y99.487 E.13031
G1 X139.814 Y99.867 E.01325
G1 X142.735 Y102.788 E.13226
G1 X142.626 Y103.223 E.01436
G1 X139.651 Y100.248 E.1347
G1 X139.494 Y100.636 E.0134
M73 P2 R37
M73 Q2 S37
G1 X142.53 Y103.672 E.13746
G1 X142.462 Y104.149 E.01543
G1 X139.358 Y101.044 E.14056
G1 X139.222 Y101.453 E.0138
G1 X142.408 Y104.639 E.14425
G1 X142.377 Y105.153 E.01649
G1 X139.103 Y101.879 E.14824
G1 X138.996 Y102.316 E.0144
G1 X142.386 Y105.706 E.15349
G1 X142.407 Y106.272 E.01813
G1 X138.893 Y102.757 E.15913
G1 X138.816 Y103.226 E.01522
G1 X142.47 Y106.879 E.16542
G1 X142.585 Y107.539 E.02145
G1 X138.74 Y103.694 E.17409
G1 X138.692 Y104.191 E.01599
G1 X142.765 Y108.263 E.18439
G1 X143.045 Y109.088 E.02789
G1 X138.652 Y104.694 E.19893
G1 X138.63 Y105.217 E.01676
G1 X143.936 Y110.523 E.24024
M204 S1000
;WIPE_START
G1 F8640
G1 X141.486 Y108.073 E-.8
;WIPE_END
G1 Z.6 F720
G1 X150.876 Y115.285 F10800
G1 Z.2 F720
G1 E.8 F2100
M204 S800
G1 F1200
G1 X151.57 Y115.979 E.03142
G1 X151.57 Y116.523 E.01742
G1 X150.413 Y115.367 E.05236
G1 X150.071 Y115.295 E.01119
G1 X149.677 Y115.175 E.01319
G1 X151.57 Y117.068 E.08571
G1 X151.57 Y117.612 E.01742
G1 X148.866 Y114.909 E.12241
G1 X148.055 Y114.564 E.02822
G1 X147.889 Y114.476 E.00602
G1 X151.57 Y118.157 E.16667
G1 X151.57 Y118.702 E.01745
G1 X138.631 Y105.762 E.58587
G1 X138.662 Y106.338 E.01847
G1 X151.57 Y119.246 E.58444
G1 X151.57 Y119.299 E.0017
G1 X151.034 Y119.254 E.01722
G1 X138.703 Y106.924 E.55829
G1 X138.783 Y107.548 E.02014
G1 X150.409 Y119.175 E.52642
G1 X149.745 Y119.055 E.0216
G1 X138.916 Y108.225 E.49033
G1 X139.072 Y108.927 E.02302
M73 P3 R37
M73 Q3 S37
G1 X149.036 Y118.89 E.45112
G1 X148.816 Y118.839 E.00723
G1 X148.264 Y118.663 E.01855
G1 X139.279 Y109.678 E.40682
G1 X139.591 Y110.534 E.02917
G1 X147.43 Y118.373 E.35493
G1 X147.058 Y118.227 E.01279
G1 X146.468 Y117.956 E.02079
G1 X140.007 Y111.495 E.29254
G1 X140.485 Y112.405 E.03291
G1 X140.663 Y112.695 E.01089
G1 X145.27 Y117.302 E.20859
G1 X144.775 Y116.989 E.01875
G1 X143.862 Y116.323 E.03618
G1 X143.301 Y115.852 E.02345
G1 X142.629 Y115.206 E.02984
G1 X141.127 Y113.704 E.06801
M204 S1000
; stop printing object MMU_3_COLOR_TEST.stl id:0 copy 0
;WIPE_START
G1 F8640
G1 X142.629 Y115.206 E-.49047
G1 X143.301 Y115.852 E-.21524
G1 X143.614 Y116.115 E-.09429
;WIPE_END
G1 Z.6 F720
G1 X132.185 Y119.384 F10800
G1 Z.2 F720
G1 E.8 F2100
;HEIGHT:0.2
;TYPE:Wipe tower
;WIDTH:0.5
;--------------------
; CP TOOLCHANGE START
; toolchange #1
; material : PLA -> PLA
;--------------------
M220 B
M220 S100
; CP TOOLCHANGE UNLOAD
;WIDTH:0.65
G1 X131.685 Y118.994
M900 K0
G1 F1339
G1 X126.106 E0.2816
G1 F1451
G1 X120.061 E0.3051
G1 F1642
G1 X113.220 E0.3453
G1 F1897
G1 X105.316 E0.3990
G1 F2264
G1 X95.884 E0.4761
G1 F2742
G1 X84.460 E0.5767
G1 F3220
G1 X73.185 E0.5691
G1 Y118.214 F7200
G1 F3220
G1 X75.327 E0.1081
G1 F3635
G1 X90.471 E0.7644
G1 F3921
G1 X106.810 E0.8248
G1 F4033
G1 X123.615 E0.8483
;WIDTH:0.5
G1 E-15.0000 F6000
G1 E-24.5000 F1200
G1 E-7.0000 F600
G1 E-3.5000 F360
M104 S215
G1 Y117.434
G1 X73.185 E20.0000 F454
G1 X123.615 E-20.0000 F303
G1 E-35.0000 F2000
M73 P4 R37
M73 Q4 S37
G1 Y117.574 F2400
G4 S0
M73 P4 R36
G1 Z.6 F720
; Filament-specific end gcode
T1
M900 K0.05 ; Filament gcode LA 1.5
M900 K30 ; Filament gcode LA 1.0

G1 F10800
G1 X123.614 Y117.574
G1 Z.2 F720
G4 S0
; CP TOOLCHANGE LOAD
G1 E12.0000 F1140
G1 X73.060 E42.0000 F1011
G1 X123.615 E6.0000 F708
G1 Y118.074
; CP TOOLCHANGE WIPE
M73 Q4 S36
G1 X131.435 E0.3507 F396
M220 R
G1 F10800
G4 S0
G92 E0
; CP TOOLCHANGE END
;------------------


G1 X72.935 Y91.514 F7200
;HEIGHT:0.2
;TYPE:Wipe tower
;WIDTH:0.5
G1 X131.935 E2.2424 F1200
G1 Y102.514 E0.4181
G1 X72.935 E2.2424
G1 Y91.514 E0.4181
G1 X131.935
G1 Y102.514
M73 P5 R36
M73 Q5 S36
G1 X130.935
;--------------------
; CP EMPTY GRID START
; layer #1
G1 Y102.014 E0.0190
G1 X73.435 E2.1854
G1 Y101.514 E0.0190
G1 X131.435 E2.2044
G1 Y101.014 E0.0190
G1 X73.435 E2.2044
G1 Y100.514 E0.0190
G1 X131.435 E2.2044
G1 Y100.014 E0.0190
G1 X73.435 E2.2044
G1 Y99.514 E0.0190
G1 X131.435 E2.2044
G1 Y99.014 E0.0190
G1 X73.435 E2.2044
G1 Y98.514 E0.0190
G1 X131.435 E2.2044
G1 Y98.014 E0.0190
M73 P6 R36
M73 Q6 S36
G1 X73.435 E2.2044
G1 Y97.514 E0.0190
G1 X131.435 E2.2044
G1 Y97.014 E0.0190
G1 X73.435 E2.2044
G1 Y96.514 E0.0190
G1 X131.435 E2.2044
G1 Y96.014 E0.0190
G1 X73.435 E2.2044
G1 Y95.514 E0.0190
G1 X131.435 E2.2044
G1 Y95.014 E0.0190
M73 P6 R35
G1 X73.435 E2.2044
G1 Y94.514 E0.0190
G1 X131.435 E2.2044
G1 Y94.014 E0.0190
M73 P7 R35
M73 Q7 S35
G1 X73.435 E2.2044
G1 Y93.514 E0.0190
G1 X131.435 E2.2044
G1 Y93.014 E0.0190
G1 X73.435 E2.2044
G1 Y92.514 E0.0190
G1 X131.435 E2.2044
G1 Y92.014 E0.0190
G1 X73.435 E2.2044
G1 Y91.514 E0.0190
; CP EMPTY GRID END
;------------------






G1 X72.435
G1 Y91.014
G1 X132.435 E2.2804
G1 Y119.634 E1.0877
G1 X72.435 E2.2804
G1 Y91.014 E1.0877
M73 P8 R35
M73 Q8 S35
G1 X71.978
G1 Y90.557
G1 X132.892 E2.3151
G1 Y120.091 E1.1225
G1 X71.978 E2.3151
G1 Y90.557 E1.1225
G1 X71.521
G1 Y90.100
G1 X133.349 E2.3499
G1 Y120.548 E1.1572
G1 X71.521 E2.3499
G1 Y90.100 E1.1572
G1 X71.064
G1 Y89.643
G1 X133.806 E2.3846
G1 Y121.005 E1.1920
M73 P9 R35
M73 Q9 S35
G1 X71.064 E2.3846
G1 Y89.643 E1.1920
G1 X70.607
G1 Y89.186
G1 X134.263 E2.4194
G1 Y121.462 E1.2267
M73 P9 R34
G1 X70.607 E2.4194
G1 Y89.186 E1.2267

; printing object MMU_3_COLOR_TEST.stl id:0 copy 0
;WIPE_START
G1 F8640
M73 Q9 S34
G1 X73.696 Y90.753 E-.8
;WIPE_END
G1 Z.6 F720
G1 X144.331 Y100.072 F10800
G1 Z.2 F720
G1 E.8 F2100
M204 S800
;TYPE:Perimeter
;WIDTH:0.419999
;HEIGHT:0.2
G1 F1200
G1 X140.495 Y97.857 E.13889
G1 X141.252 Y96.771 E.04151
G1 X141.73 Y96.186 E.02369
G1 X142.517 Y95.344 E.03614
G1 X143.069 Y94.828 E.02369
G1 X143.958 Y94.102 E.03599
G1 X144.903 Y93.449 E.03602
G1 X145.556 Y93.061 E.02382
G1 X146.228 Y92.708 E.0238
G1 X147.278 Y92.244 E.03599
G1 X148.363 Y91.865 E.03604
G1 X149.095 Y91.664 E.0238
G1 X149.837 Y91.502 E.02381
G1 X150.977 Y91.332 E.03614
G1 X151.733 Y91.271 E.02378
G1 X152.509 Y91.251 E.02434
G1 X153.644 Y91.297 E.03562
G1 X154.399 Y91.379 E.02381
G1 X155.148 Y91.501 E.02379
G1 X156.271 Y91.761 E.03614
G1 X156.993 Y91.981 E.02367
G1 X158.071 Y92.39 E.03615
G1 X158.757 Y92.704 E.02366
G1 X159.77 Y93.254 E.03614
G1 X160.423 Y93.667 E.02423
G1 X161.339 Y94.337 E.03558
G1 X161.921 Y94.825 E.02381
G1 X162.478 Y95.346 E.02391
G1 X163.004 Y95.894 E.02382
G1 X163.743 Y96.774 E.03603
G1 X164.498 Y97.857 E.04139
G1 X160.661 Y100.072 E.13891
G1 X160.19 Y99.415 E.02535
G1 X159.41 Y98.546 E.03661
G1 X158.638 Y97.852 E.03255
G1 X157.944 Y97.334 E.02715
G1 X157.074 Y96.813 E.0318
G1 X156.387 Y96.486 E.02386
G1 X155.629 Y96.2 E.0254
G1 X154.835 Y95.961 E.026
G1 X153.839 Y95.769 E.0318
G1 X153.159 Y95.699 E.02143
G1 X152.476 Y95.677 E.02143
G1 X151.794 Y95.702 E.0214
G1 X151.115 Y95.775 E.02141
G1 X150.442 Y95.895 E.02143
G1 X149.709 Y96.084 E.02373
G1 X148.96 Y96.345 E.02487
G1 X148.188 Y96.676 E.02634
G1 X147.277 Y97.191 E.03281
G1 X146.628 Y97.646 E.02485
G1 X146.19 Y97.979 E.01725
G1 X145.674 Y98.447 E.02184
G1 X145.21 Y98.93 E.021
G1 X144.772 Y99.454 E.02141
G1 X144.366 Y100.023 E.02192
M204 S1000
G1 X144.458 Y100.58 F10800
M204 S800
;TYPE:External perimeter
G1 F1200
G1 X139.971 Y97.99 E.16244
G1 X140.27 Y97.502 E.01794
G1 X140.952 Y96.542 E.03692
G1 X141.446 Y95.937 E.02449
G1 X142.25 Y95.077 E.03691
G1 X142.82 Y94.544 E.02447
G1 X143.731 Y93.8 E.03688
G1 X144.7 Y93.132 E.0369
G1 X145.372 Y92.732 E.02452
G1 X146.064 Y92.368 E.02452
G1 X147.14 Y91.893 E.03688
G1 X148.251 Y91.505 E.0369
G1 X149.005 Y91.298 E.02452
G1 X149.769 Y91.131 E.02452
G1 X150.934 Y90.958 E.03693
G1 X151.713 Y90.895 E.0245
G1 X152.512 Y90.874 E.02506
G1 X153.672 Y90.921 E.0364
G1 X154.449 Y91.005 E.0245
G1 X155.221 Y91.13 E.02452
G1 X156.368 Y91.397 E.03692
G1 X157.115 Y91.624 E.02448
G1 X158.216 Y92.042 E.03693
G1 X158.926 Y92.367 E.02448
G1 X159.961 Y92.928 E.03691
G1 X160.635 Y93.355 E.02502
G1 X161.572 Y94.04 E.03639
G1 X162.171 Y94.543 E.02452
G1 X162.743 Y95.078 E.02456
G1 X163.285 Y95.642 E.02453
G1 X164.041 Y96.543 E.03688
G1 X164.712 Y97.487 E.03631
G1 X165.022 Y97.99 E.01853
G1 X160.534 Y100.58 E.16247
G1 X160.294 Y100.196 E.0142
G1 X159.905 Y99.662 E.02071
G1 X159.153 Y98.821 E.03537
G1 X158.411 Y98.154 E.03128
G1 X157.75 Y97.657 E.02593
G1 X156.908 Y97.152 E.03078
G1 X156.246 Y96.835 E.02301
