; generated by PrusaSlicer 2.6.0-alpha4+win64 on 2023-02-27 at 15:22:42 UTC


;
;
; 

; external perimeters extrusion width = 0.45mm
; perimeters extrusion width = 0.45mm
; infill extrusion width = 0.45mm
; solid infill extrusion width = 0.45mm
; top infill extrusion width = 0.40mm
; first layer extrusion width = 0.42mm

; external perimeters extrusion width = 0.45mm
; perimeters extrusion width = 0.45mm
; infill extrusion width = 0.45mm
; solid infill extrusion width = 0.45mm
; top infill extrusion width = 0.40mm
; first layer extrusion width = 0.42mm

; external perimeters extrusion width = 0.45mm
; perimeters extrusion width = 0.45mm
; infill extrusion width = 0.45mm
; solid infill extrusion width = 0.45mm
; top infill extrusion width = 0.40mm
; first layer extrusion width = 0.42mm

; external perimeters extrusion width = 0.45mm
; perimeters extrusion width = 0.45mm
; infill extrusion width = 0.45mm
; solid infill extrusion width = 0.45mm
; top infill extrusion width = 0.40mm
; first layer extrusion width = 0.42mm

; external perimeters extrusion width = 0.45mm
; perimeters extrusion width = 0.45mm
; infill extrusion width = 0.45mm
; solid infill extrusion width = 0.45mm
; top infill extrusion width = 0.40mm
; first layer extrusion width = 0.42mm

M73 P0 R70
M73 Q0 S71
M201 X1000 Y1000 Z200 E8000 ; sets maximum accelerations, mm/sec^2
M203 X200 Y200 Z12 E120 ; sets maximum feedrates, mm / sec
M204 P1250 R1250 T1250 ; sets acceleration (P, T) and retract acceleration (R), mm/sec^2
M205 X8.00 Y8.00 Z0.40 E4.50 ; sets the jerk limits, mm/sec
M205 S0 T0 ; sets the minimum extruding and travel feed rate, mm/sec
M107
;TYPE:Custom
M862.3 P "MK3SMMU2S" ; printer model check
M862.1 P0.4 ; nozzle diameter check
M115 U3.12.1 ; tell printer latest fw version
G90 ; use absolute coordinates
M83 ; extruder relative mode
M104 S215 ; set extruder temp
M140 S60 ; set bed temp
M190 S60 ; wait for bed temp
M109 S215 ; wait for extruder temp
G28 W ; home all without mesh bed level
G80 ; mesh bed leveling

; Send the filament type to the MMU2.0 unit.
; E stands for extruder number, F stands for filament type (0: default; 1:flex; 2: PVA)
M403 E0 F0
M403 E1 F0
M403 E2 F0
M403 E3 F0
M403 E4 F0


;go outside print area
G1 Y-3 F1000
G1 Z0.4 F1000
; select extruder
T0
; initial load
M73 Q0 S70
G1 X55 E29 F1073
G1 X5 E29 F1800
G1 X55 E8 F2000
G1 Z0.3 F1000
G92 E0
G1 X240 E25 F2200
G1 Y-2 F1000
G1 X55 E25 F1400
G1 Z0.2 F1000
G1 X5 E4 F1000
G92 E0


M221 S95
G92 E0

; Don't change E values below. Excessive value can damage the printer.
M907 E430 ; set extruder motor current
G21 ; set units to millimeters
G90 ; use absolute coordinates
M83 ; use relative distances for extrusion
T0
M900 K0.05 ; Filament gcode LA 1.5
M900 K30 ; Filament gcode LA 1.0
G1 Z.2 F720
M107
;LAYER_CHANGE
;Z:0.2
;HEIGHT:0.2
;BEFORE_LAYER_CHANGE
G92 E0.0
;0.2


G1 E-.8 F2100
G1 Z.6 F720
G1 Z.2
;AFTER_LAYER_CHANGE
;0.2
G1 Z.6
G1 X67.738 Y73.997 F10800
G1 Z.2 F720
G1 E.8 F2100
M204 S800
;TYPE:Skirt/Brim
;WIDTH:0.42
;HEIGHT:0.2
G1 F1200
G1 X68.783 Y73.12 E.04277
G1 X69.723 Y72.927 E.03009
G1 X133.837 Y72.927 E2.01025
G1 X135.217 Y73.368 E.04542
G1 X162.466 Y92.816 E1.04966
G1 X163.653 Y93.827 E.04889
M73 P1 R70
M73 Q1 S70
G1 X164.552 Y94.729 E.03993
G1 X165.529 Y95.879 E.04731
G1 X166.429 Y97.152 E.04888
G1 X167.187 Y98.453 E.04721
G1 X167.85 Y99.865 E.04891
G1 X168.384 Y101.33 E.04889
G1 X168.709 Y102.508 E.03832
G1 X169.002 Y104.04 E.04891
G1 X169.154 Y105.538 E.04721
G1 X169.174 Y107.097 E.04889
G1 X169.054 Y108.652 E.0489
G1 X168.863 Y109.86 E.03835
G1 X168.496 Y111.375 E.04888
G1 X168.015 Y112.802 E.04722
G1 X167.388 Y114.23 E.0489
G1 X166.809 Y115.307 E.03834
G1 X165.962 Y116.616 E.04889
G1 X165.002 Y117.845 E.0489
G1 X163.974 Y118.945 E.04721
G1 X163.071 Y119.77 E.03835
G1 X161.883 Y120.696 E.04723
G1 X135.211 Y139.597 E1.02498
G1 X133.837 Y140.035 E.04522
G1 X69.723 Y140.035 E2.01025
G1 X68.416 Y139.643 E.04278
G1 X67.54 Y138.597 E.04278
G1 X67.346 Y137.658 E.03006
G1 X67.346 Y75.304 E1.95507
G1 X67.72 Y74.054 E.04091
M204 S1000
; printing object MMU_5COLOR_TEST.stl id:0 copy 0
;WIPE_START
G1 F8640
G1 X68.783 Y73.12 E-.32674
G1 X69.723 Y72.927 E-.22158
G1 X70.813 Y72.927 E-.25168
;WIPE_END
G1 Z.6 F720
G1 X160.09 Y106.662 F10800
G1 Z.2 F720
G1 E.8 F2100
M204 S800
;TYPE:Perimeter
;WIDTH:0.419999
G1 F1200
G1 X166.009 Y106.329 E.18588
G1 X166.018 Y106.702 E.0117
G1 X165.996 Y107.336 E.01989
G1 X165.947 Y107.968 E.01988
G1 X165.817 Y108.923 E.03022
G1 X165.697 Y109.546 E.01989
G1 X165.548 Y110.166 E.01999
G1 X165.372 Y110.779 E.02
G1 X165.195 Y111.302 E.01731
G1 X164.768 Y112.361 E.0358
G1 X164.355 Y113.209 E.02957
G1 X164.053 Y113.748 E.01937
G1 X163.709 Y114.301 E.02042
G1 X163.157 Y115.09 E.03019
G1 X162.775 Y115.575 E.01936
G1 X162.358 Y116.058 E.02001
G1 X161.822 Y116.618 E.02431
G1 X161.452 Y116.974 E.0161
G1 X160.714 Y117.61 E.03055
G1 X159.974 Y118.168 E.02906
G1 X159.466 Y118.51 E.0192
G1 X158.931 Y118.836 E.01964
G1 X158.382 Y119.139 E.01966
G1 X157.489 Y119.558 E.03093
G1 X155.336 Y114.01 E.18659
G1 X156.021 Y113.674 E.02392
G1 X156.492 Y113.373 E.01753
G1 X157.117 Y112.899 E.02459
G1 X157.498 Y112.551 E.01618
G1 X157.95 Y112.078 E.02051
G1 X158.415 Y111.535 E.02241
G1 X159.128 Y110.419 E.04152
G1 X159.568 Y109.437 E.03374
G1 X159.812 Y108.674 E.02512
G1 X160.041 Y107.453 E.03895
M73 P1 R69
G1 X160.087 Y106.722 E.02297
M204 S1000
G1 X159.709 Y106.306 F10800
M204 S800
;TYPE:External perimeter
G1 F1200
G1 X166.378 Y105.931 E.20943
G1 X166.395 Y106.704 E.02424
G1 X166.373 Y107.357 E.02049
G1 X166.322 Y108.009 E.02051
G1 X166.19 Y108.984 E.03085
G1 X166.066 Y109.626 E.0205
G1 X165.913 Y110.262 E.02051
G1 X165.732 Y110.892 E.02055
G1 X165.523 Y111.511 E.02048
G1 X165.157 Y112.423 E.03081
G1 X164.73 Y113.309 E.03084
G1 X164.414 Y113.881 E.02049
G1 X164.072 Y114.438 E.02049
G1 X163.512 Y115.248 E.03088
G1 X163.11 Y115.763 E.02048
G1 X162.685 Y116.261 E.02053
G1 X162.238 Y116.739 E.02052
G1 X161.77 Y117.196 E.02051
G1 X161.03 Y117.843 E.03082
G1 X160.248 Y118.439 E.03083
G1 X159.706 Y118.805 E.02051
G1 X159.148 Y119.147 E.02052
G1 X158.575 Y119.464 E.02053
G1 X157.989 Y119.754 E.0205
G1 X157.279 Y120.058 E.02422
G1 X154.858 Y113.823 E.20971
G1 X155.819 Y113.355 E.03351
G1 X156.265 Y113.072 E.01656
G1 X156.863 Y112.621 E.02348
G1 X157.244 Y112.273 E.01618
G1 X157.666 Y111.83 E.01918
G1 X158.098 Y111.331 E.02069
G1 X158.784 Y110.263 E.0398
G1 X159.21 Y109.321 E.03242
G1 X159.441 Y108.605 E.02359
G1 X159.67 Y107.383 E.03898
G1 X159.707 Y106.366 E.03191
M204 S1000
G1 X160.055 Y106.506 F10800
;WIPE_START
G1 F8640
G1 X163.164 Y106.141 E-.8
;WIPE_END
G1 Z.6 F720
G1 X165.829 Y107.269 F10800
G1 Z.2 F720
G1 E.8 F2100
M204 S800
;TYPE:Solid infill
;WIDTH:0.426547
G1 F1200
G1 X165.27 Y106.711 E.02519
G1 X164.757 Y106.74 E.01639
G1 X165.634 Y107.617 E.03956
G1 X165.585 Y108.111 E.01584
G1 X164.243 Y106.769 E.06054
G1 X163.729 Y106.797 E.01642
G1 X165.52 Y108.588 E.08079
G1 X165.446 Y109.057 E.01515
G1 X163.216 Y106.826 E.10062
G1 X162.702 Y106.855 E.01642
G1 X165.357 Y109.51 E.11977
G1 X165.252 Y109.947 E.01434
G1 X162.188 Y106.884 E.1382
G1 X161.674 Y106.913 E.01642
G1 X165.135 Y110.373 E.15611
G1 X165.01 Y110.79 E.01389
G1 X161.161 Y106.942 E.17361
G1 X160.647 Y106.97 E.01642
G1 X164.873 Y111.196 E.19064
G1 X164.72 Y111.586 E.01336
G1 X160.393 Y107.258 E.19522
G1 X160.376 Y107.506 E.00793
G1 X160.332 Y107.741 E.00763
G1 X164.565 Y111.974 E.19096
G1 X164.397 Y112.348 E.01308
G1 X160.246 Y108.197 E.18726
G1 X160.161 Y108.654 E.01483
G1 X164.221 Y112.715 E.18318
G1 X164.04 Y113.076 E.01288
G1 X160.039 Y109.075 E.18049
G1 X159.908 Y109.487 E.01379
G1 X163.847 Y113.426 E.17769
G1 X163.644 Y113.766 E.01263
G1 X159.747 Y109.868 E.17582
G1 X159.578 Y110.241 E.01306
G1 X163.436 Y114.099 E.17404
G1 X163.214 Y114.42 E.01245
G1 X159.409 Y110.615 E.17165
G1 X159.197 Y110.946 E.01254
G1 X162.992 Y114.74 E.17118
G1 X162.758 Y115.049 E.01236
G1 X158.985 Y111.276 E.17021
G1 X158.773 Y111.607 E.01254
G1 X162.519 Y115.352 E.16897
G1 X162.269 Y115.645 E.01229
G1 X158.536 Y111.912 E.1684
G1 X158.285 Y112.204 E.01228
G1 X162.012 Y115.931 E.16813
G1 X161.75 Y116.212 E.01226
G1 X158.034 Y112.496 E.16763
G1 X157.763 Y112.767 E.01223
G1 X161.477 Y116.481 E.16754
G1 X161.198 Y116.745 E.01225
G1 X157.48 Y113.026 E.16775
G1 X157.186 Y113.275 E.01229
G1 X160.909 Y116.998 E.16795
G1 X160.619 Y117.251 E.01228
G1 X156.877 Y113.508 E.16883
G1 X156.559 Y113.733 E.01243
G1 X160.314 Y117.488 E.16939
G1 X160.006 Y117.722 E.01234
G1 X156.228 Y113.944 E.17043
G1 X155.868 Y114.127 E.01288
G1 X159.691 Y117.95 E.17246
G1 X159.368 Y118.169 E.01245
G1 X156.011 Y114.813 E.15142
G1 X156.356 Y115.7 E.03036
G1 X159.033 Y118.377 E.12076
G1 X158.693 Y118.58 E.01263
G1 X156.7 Y116.586 E.08993
G1 X157.044 Y117.473 E.03035
G1 X158.344 Y118.773 E.05865
G1 X157.982 Y118.954 E.01291
G1 X157.091 Y118.062 E.04022
M204 S1000
; stop printing object MMU_5COLOR_TEST.stl id:0 copy 0
;WIPE_START
G1 F8640
G1 X157.982 Y118.954 E-.29112
G1 X158.344 Y118.773 E-.09345
G1 X157.072 Y117.501 E-.41543
;WIPE_END
G1 Z.6 F720
G1 X131.53 Y135.351 F10800
G1 Z.2 F720
G1 E.8 F2100
;HEIGHT:0.2
;TYPE:Wipe tower
;WIDTH:0.5
;--------------------
; CP TOOLCHANGE START
; toolchange #1
; material : PLA -> PLA
;--------------------
M220 B
M220 S100
; CP TOOLCHANGE UNLOAD
;WIDTH:0.65
G1 X131.030 Y134.961
M900 K0
G1 F1339
G1 X125.451 E0.2816
G1 F1451
G1 X119.406 E0.3051
G1 F1642
G1 X112.565 E0.3453
G1 F1897
G1 X104.661 E0.3990
G1 F2264
G1 X95.229 E0.4761
G1 F2742
G1 X83.805 E0.5767
G1 F3220
G1 X72.530 E0.5691
G1 Y134.181 F7200
G1 F3220
G1 X74.672 E0.1081
G1 F3635
G1 X89.816 E0.7644
G1 F3921
G1 X106.155 E0.8248
G1 F4033
G1 X122.960 E0.8483
;WIDTH:0.5
G1 E-15.0000 F6000
G1 E-24.5000 F1200
M73 Q1 S69
G1 E-7.0000 F600
G1 E-3.5000 F360
M104 S215
G1 Y133.401
G1 X72.530 E20.0000 F454
G1 X122.960 E-20.0000 F303
G1 E-35.0000 F2000
M73 P2 R69
M73 Q2 S69
G1 Y133.541 F2400
G4 S0
G1 Z.6 F720
; Filament-specific end gcode
T1
M900 K0.05 ; Filament gcode LA 1.5
M900 K30 ; Filament gcode LA 1.0

G1 F10800
G1 X122.960 Y133.541
G1 Z.2 F720
G4 S0
; CP TOOLCHANGE LOAD
G1 E12.0000 F1140
M73 P2 R68
G1 X72.405 E42.0000 F1011
G1 X122.960 E6.0000 F708
G1 Y134.041
; CP TOOLCHANGE WIPE
M73 P3 R68
M73 Q3 S69
G1 X130.780 E0.3507 F396
M220 R
G1 F10800
G4 S0
G92 E0
; CP TOOLCHANGE END
;------------------


G1 X72.280 Y77.861 F7200
;HEIGHT:0.2
;TYPE:Wipe tower
;WIDTH:0.5
G1 X131.280 E2.2424 F1200
G1 Y88.361 E0.3991
M73 Q3 S68
G1 X72.280 E2.2424
G1 Y77.861 E0.3991
G1 X131.280
G1 Y88.361
G1 X130.280
;--------------------
; CP EMPTY GRID START
; layer #1
G1 Y87.861 E0.0190
G1 X72.780 E2.1854
G1 Y87.361 E0.0190
G1 X130.780 E2.2044
G1 Y86.861 E0.0190
G1 X72.780 E2.2044
G1 Y86.361 E0.0190
G1 X130.780 E2.2044
G1 Y85.861 E0.0190
G1 X72.780 E2.2044
G1 Y85.361 E0.0190
G1 X130.780 E2.2044
G1 Y84.861 E0.0190
G1 X72.780 E2.2044
G1 Y84.361 E0.0190
G1 X130.780 E2.2044
G1 Y83.861 E0.0190
G1 X72.780 E2.2044
G1 Y83.361 E0.0190
G1 X130.780 E2.2044
G1 Y82.861 E0.0190
G1 X72.780 E2.2044
G1 Y82.361 E0.0190
M73 P4 R68
M73 Q4 S68
G1 X130.780 E2.2044
G1 Y81.861 E0.0190
G1 X72.780 E2.2044
G1 Y81.361 E0.0190
M73 P4 R67
G1 X130.780 E2.2044
G1 Y80.861 E0.0190
G1 X72.780 E2.2044
G1 Y80.361 E0.0190
G1 X130.780 E2.2044
G1 Y79.861 E0.0190
G1 X72.780 E2.2044
G1 Y79.361 E0.0190
G1 X130.780 E2.2044
G1 Y78.861 E0.0190
M73 Q4 S67
G1 X72.780 E2.2044
G1 Y78.361 E0.0190
G1 X130.780 E2.2044
G1 Y77.861 E0.0190
; CP EMPTY GRID END
;------------------






G1 X131.780
G1 Y77.361
G1 Y135.601 E2.2135
G1 X71.780 E2.2804
G1 Y77.361 E2.2135
G1 X131.780 E2.2804
G1 X132.237
G1 Y76.904
G1 Y136.058 E2.2482
G1 X71.323 E2.3151
M73 P5 R67
M73 Q5 S67
G1 Y76.904 E2.2482
G1 X132.237 E2.3151
G1 X132.694
G1 Y76.447
G1 Y136.515 E2.2830
G1 X70.866 E2.3499
G1 Y76.447 E2.2830
G1 X132.694 E2.3499
G1 X133.151
G1 Y75.990
G1 Y136.972 E2.3177
G1 X70.409 E2.3846
M73 P5 R66
G1 Y75.990 E2.3177
G1 X133.151 E2.3846
G1 X133.608
G1 Y75.533
G1 Y137.429 E2.3525
G1 X69.952 E2.4194
G1 Y75.533 E2.3525
M73 Q5 S66
G1 X133.608 E2.4194

; printing object MMU_5COLOR_TEST.stl id:0 copy 0
;WIPE_START
M73 P6 R66
M73 Q6 S66
G1 F8640
G1 X133.608 Y78.997 E-.8
;WIPE_END
G1 Z.6 F720
G1 X160.002 Y105.491 F10800
G1 Z.2 F720
G1 E.8 F2100
M204 S800
;TYPE:Perimeter
;WIDTH:0.419999
;HEIGHT:0.2
G1 F1200
G1 X159.889 Y104.717 E.02453
G1 X159.607 Y103.747 E.03167
G1 X159.273 Y102.948 E.02715
G1 X158.6 Y101.797 E.04181
G1 X157.815 Y100.834 E.03895
G1 X157.477 Y100.517 E.01453
G1 X156.773 Y99.916 E.02902
G1 X156.326 Y99.594 E.01727
G1 X155.626 Y99.186 E.0254
G1 X154.703 Y98.776 E.03167
G1 X154.482 Y98.703 E.0073
G1 X155.996 Y92.966 E.18604
G1 X156.352 Y93.073 E.01166
G1 X156.946 Y93.288 E.01981
G1 X157.831 Y93.667 E.03019
G1 X158.4 Y93.949 E.01991
G1 X158.955 Y94.255 E.01987
G1 X159.771 Y94.768 E.03022
G1 X160.288 Y95.135 E.01988
G1 X160.789 Y95.525 E.01991
G1 X161.512 Y96.157 E.03011
G1 X161.962 Y96.607 E.01995
G1 X162.344 Y97.012 E.01746
G1 X162.88 Y97.633 E.02572
G1 X163.316 Y98.206 E.02258
G1 X163.728 Y98.814 E.02303
G1 X164.135 Y99.475 E.02434
G1 X164.578 Y100.307 E.02955
G1 X164.837 Y100.868 E.01937
G1 X165.082 Y101.471 E.02041
G1 X165.394 Y102.377 E.03004
G1 X165.558 Y102.953 E.01878
G1 X165.703 Y103.563 E.01966
G1 X165.821 Y104.178 E.01963
G1 X165.911 Y104.796 E.01958
G1 X165.944 Y105.157 E.01137
G1 X160.062 Y105.487 E.18472
M204 S1000
G1 X159.676 Y105.887 F10800
M204 S800
;TYPE:External perimeter
G1 F1200
G1 X159.533 Y104.849 E.03285
G1 X159.245 Y103.853 E.03251
G1 X158.946 Y103.137 E.02433
G1 X158.308 Y102.035 E.03993
G1 X157.522 Y101.073 E.03895
G1 X156.551 Y100.221 E.0405
G1 X156.135 Y99.919 E.01612
G1 X155.473 Y99.531 E.02406
G1 X154.55 Y99.121 E.03167
G1 X154.025 Y98.954 E.01727
G1 X155.731 Y92.492 E.20955
G1 X156.471 Y92.715 E.02423
G1 X157.084 Y92.937 E.02044
G1 X157.989 Y93.324 E.03086
G1 X158.575 Y93.614 E.0205
G1 X159.147 Y93.931 E.0205
G1 X159.981 Y94.454 E.03087
G1 X160.514 Y94.832 E.02049
G1 X161.029 Y95.234 E.02048
G1 X161.769 Y95.881 E.03082
G1 X162.464 Y96.575 E.0308
G1 X163.12 Y97.327 E.03129
G1 X163.467 Y97.772 E.01769
G1 X164.047 Y98.614 E.03206
G1 X164.467 Y99.296 E.02511
G1 X164.919 Y100.148 E.03024
G1 X165.185 Y100.724 E.01989
G1 X165.438 Y101.347 E.02108
G1 X165.757 Y102.273 E.03071
G1 X165.925 Y102.865 E.01929
G1 X166.073 Y103.492 E.0202
G1 X166.194 Y104.124 E.02018
G1 X166.287 Y104.762 E.02022
G1 X166.354 Y105.512 E.02361
G1 X159.736 Y105.883 E.20783
M204 S1000
G1 X159.823 Y105.515 F10800
;WIPE_START
G1 F8640
G1 X159.533 Y104.849 E-.24331
G1 X159.245 Y103.853 E-.2394
G1 X158.946 Y103.137 E-.17916
G1 X158.646 Y102.619 E-.13813
;WIPE_END
G1 Z.6 F720
G1 X163.187 Y98.317 F10800
G1 Z.2 F720
G1 E.8 F2100
M204 S800
;TYPE:Solid infill
;WIDTH:0.427778
G1 F1200
G1 X161.236 Y96.366 E.0883
G1 X160.573 Y95.787 E.02817
G1 X160.086 Y95.407 E.01977
G1 X159.582 Y95.05 E.01976
G1 X159.026 Y94.701 E.02101
G1 X163.644 Y99.319 E.20899
G1 X163.794 Y99.558 E.00903
G1 X164.304 Y100.523 E.03493
G1 X157.822 Y94.041 E.29335
G1 X156.856 Y93.619 E.03373
G1 X164.727 Y101.491 E.35624
G1 X165.022 Y102.329 E.02843
G1 X156.203 Y93.51 E.39912
G1 X156.089 Y93.941 E.01427
G1 X165.243 Y103.095 E.41428
G1 X165.403 Y103.799 E.0231
G1 X155.976 Y94.372 E.42663
G1 X155.862 Y94.802 E.01424
G1 X165.516 Y104.456 E.4369
G1 X165.567 Y104.838 E.01233
G1 X165.365 Y104.85 E.00648
G1 X155.748 Y95.233 E.43523
G1 X155.635 Y95.663 E.01423
G1 X164.85 Y104.879 E.41706
G1 X164.334 Y104.908 E.01654
G1 X155.521 Y96.094 E.39887
G1 X155.407 Y96.525 E.01427
G1 X163.819 Y104.936 E.38067
G1 X163.304 Y104.965 E.01651
G1 X155.294 Y96.955 E.3625
G1 X155.18 Y97.386 E.01427
G1 X162.788 Y104.994 E.34431
G1 X162.273 Y105.023 E.01651
G1 X155.066 Y97.817 E.32614
G1 X154.953 Y98.247 E.01423
G1 X155.783 Y99.077 E.03756
M204 S1000
;WIPE_START
G1 F8640
G1 X154.953 Y98.247 E-.27103
G1 X155.066 Y97.817 E-.10266
G1 X156.372 Y99.122 E-.42631
;WIPE_END
G1 Z.6 F720
G1 X159.207 Y102.501 F10800
G1 Z.2 F720
G1 E.8 F2100
M204 S800
G1 F1200
G1 X161.758 Y105.052 E.11545
G1 X161.242 Y105.081 E.01654
G1 X159.977 Y103.815 E.05727
