; generated by PrusaSlicer 2.6.0-alpha4+win64 on 2023-02-27 at 15:48:10 UTC


;
;
; 

; external perimeters extrusion width = 0.45mm
; perimeters extrusion width = 0.45mm
; infill extrusion width = 0.45mm
; solid infill extrusion width = 0.45mm
; top infill extrusion width = 0.40mm
; first layer extrusion width = 0.42mm

; external perimeters extrusion width = 0.45mm
; perimeters extrusion width = 0.45mm
; infill extrusion width = 0.45mm
; solid infill extrusion width = 0.45mm
; top infill extrusion width = 0.40mm
; first layer extrusion width = 0.42mm

M73 P0 R22
M73 Q0 S22
M201 X1000 Y1000 Z200 E8000 ; sets maximum accelerations, mm/sec^2
M203 X200 Y200 Z12 E120 ; sets maximum feedrates, mm / sec
M204 P1250 R1250 T1250 ; sets acceleration (P, T) and retract acceleration (R), mm/sec^2
M205 X8.00 Y8.00 Z0.40 E4.50 ; sets the jerk limits, mm/sec
M205 S0 T0 ; sets the minimum extruding and travel feed rate, mm/sec
M107
;TYPE:Custom
M862.3 P "MK3SMMU2S" ; printer model check
M862.1 P0.4 ; nozzle diameter check
M115 U3.12.1 ; tell printer latest fw version
G90 ; use absolute coordinates
M83 ; extruder relative mode
M104 S215 ; set extruder temp
M140 S60 ; set bed temp
M190 S60 ; wait for bed temp
M109 S215 ; wait for extruder temp
G28 W ; home all without mesh bed level
G80 ; mesh bed leveling

; Send the filament type to the MMU2.0 unit.
; E stands for extruder number, F stands for filament type (0: default; 1:flex; 2: PVA)
M403 E0 F0
M403 E1 F0
M403 E2 F0
M403 E3 F0
M403 E4 F0


;go outside print area
G1 Y-3 F1000
G1 Z0.4 F1000
; select extruder
T0
; initial load
G1 X55 E29 F1073
G1 X5 E29 F1800
G1 X55 E8 F2000
G1 Z0.3 F1000
G92 E0
G1 X240 E25 F2200
G1 Y-2 F1000
G1 X55 E25 F1400
G1 Z0.2 F1000
M73 P1 R22
M73 Q1 S22
G1 X5 E4 F1000
G92 E0


M221 S95
G92 E0

; Don't change E values below. Excessive value can damage the printer.
M907 E430 ; set extruder motor current
G21 ; set units to millimeters
G90 ; use absolute coordinates
M83 ; use relative distances for extrusion
T0
M900 K0.05 ; Filament gcode LA 1.5
M900 K30 ; Filament gcode LA 1.0
G1 Z.2 F720
M107
;LAYER_CHANGE
;Z:0.2
;HEIGHT:0.2
;BEFORE_LAYER_CHANGE
G92 E0.0
;0.2


G1 E-.8 F2100
G1 Z.6 F720
G1 Z.2
;AFTER_LAYER_CHANGE
;0.2
G1 Z.6
G1 X70.448 Y94.122 F10800
G1 Z.2 F720
G1 E.8 F2100
M204 S800
;TYPE:Skirt/Brim
;WIDTH:0.42
;HEIGHT:0.2
G1 F1200
G1 X71.206 Y93.935 E.02448
G1 X151.478 Y87.76 E2.52431
G1 X153.485 Y87.7 E.06296
M73 P2 R22
M73 Q2 S22
G1 X155.04 Y87.813 E.04888
G1 X156.578 Y88.066 E.04887
G1 X158.088 Y88.455 E.04889
G1 X159.202 Y88.838 E.03694
G1 X160.572 Y89.429 E.04678
G1 X161.943 Y90.171 E.04888
G1 X163.243 Y91.033 E.04891
G1 X164.46 Y92.007 E.04887
G1 X165.585 Y93.087 E.0489
G1 X166.564 Y94.208 E.04667
G1 X167.483 Y95.468 E.0489
G1 X168.285 Y96.804 E.04886
G1 X168.965 Y98.208 E.04891
G1 X169.516 Y99.666 E.04887
G1 X170.148 Y102.258 E.08365
G1 X170.331 Y103.807 E.04891
G1 X170.376 Y105.294 E.04665
G1 X170.286 Y106.851 E.0489
G1 X170.056 Y108.393 E.04888
G1 X169.69 Y109.909 E.0489
G1 X169.189 Y111.385 E.04887
G1 X168.558 Y112.811 E.04889
G1 X167.801 Y114.174 E.04888
G1 X166.925 Y115.465 E.04892
G1 X165.938 Y116.671 E.04886
G1 X164.846 Y117.784 E.04889
G1 X163.658 Y118.795 E.04891
G1 X161.432 Y120.264 E.08362
G1 X160.036 Y120.959 E.0489
G1 X158.583 Y121.526 E.0489
G1 X156.648 Y122.06 E.06294
G1 X155.11 Y122.318 E.0489
G1 X153.556 Y122.438 E.04887
G1 X151.997 Y122.418 E.04889
G1 X71.225 Y116.85 E2.53856
G1 X69.948 Y116.37 E.04277
G1 X69.145 Y115.266 E.0428
G1 X69.011 Y114.479 E.02503
G1 X69.011 Y96.305 E.56983
G1 X69.403 Y94.998 E.04278
G1 X70.402 Y94.16 E.04088
M204 S1000
; printing object MMU_2_COLOR_TEST.stl id:0 copy 0
;WIPE_START
G1 F8640
M73 P2 R21
G1 X71.206 Y93.935 E-.19278
G1 X73.828 Y93.733 E-.60722
;WIPE_END
G1 Z.6 F720
G1 X152.413 Y115.836 F10800
G1 Z.2 F720
G1 E.8 F2100
M204 S800
;TYPE:Perimeter
;WIDTH:0.419999
G1 F1200
G1 X152.413 Y119.265 E.10751
G1 X151.304 Y119.181 E.03487
G1 X150.463 Y119.054 E.02667
G1 X149.635 Y118.878 E.02654
G1 X148.403 Y118.518 E.04024
G1 X147.614 Y118.222 E.02642
G1 X146.453 Y117.685 E.04011
G1 X145.345 Y117.045 E.04012
G1 X144.65 Y116.571 E.02638
G1 X143.646 Y115.77 E.04027
G1 X143.029 Y115.198 E.02638
G1 X142.156 Y114.257 E.04025
G1 X141.628 Y113.595 E.02655
G1 X141.141 Y112.903 E.02653
G1 X140.483 Y111.801 E.04024
G1 X140.104 Y111.044 E.02654
G1 X139.77 Y110.263 E.02663
G1 X139.485 Y109.466 E.02654
G1 X139.143 Y108.228 E.04027
G1 X138.981 Y107.402 E.02639
G1 X138.827 Y106.128 E.04024
G1 X138.789 Y105.283 E.02652
G1 X138.802 Y104.432 E.02669
G1 X138.866 Y103.584 E.02666
G1 X138.98 Y102.742 E.02664
G1 X139.144 Y101.907 E.02668
G1 X139.358 Y101.084 E.02666
G1 X139.621 Y100.276 E.02664
G1 X139.931 Y99.484 E.02667
G1 X140.289 Y98.713 E.02665
G1 X140.692 Y97.964 E.02667
G1 X141.139 Y97.24 E.02668
G1 X141.628 Y96.545 E.02664
G1 X142.159 Y95.88 E.02668
G1 X142.728 Y95.248 E.02666
G1 X143.333 Y94.651 E.02665
G1 X143.974 Y94.092 E.02667
G1 X144.646 Y93.572 E.02664
G1 X145.346 Y93.095 E.02656
G1 X146.457 Y92.453 E.04023
G1 X147.216 Y92.088 E.02641
G1 X148.429 Y91.613 E.04084
G1 X149.215 Y91.371 E.02579
G1 X150.528 Y91.076 E.04219
G1 X151.333 Y90.956 E.02552
G1 X152.413 Y90.875 E.03396
G1 X152.413 Y94.304 E.10751
G1 X151.387 Y94.405 E.03232
G1 X150.635 Y94.546 E.02399
G1 X149.873 Y94.747 E.02471
G1 X149.127 Y95.003 E.02473
G1 X148.383 Y95.322 E.02538
G1 X147.702 Y95.674 E.02404
G1 X147.154 Y96.01 E.02015
G1 X146.654 Y96.355 E.01905
G1 X146.161 Y96.737 E.01955
G1 X145.69 Y97.143 E.0195
G1 X145.214 Y97.606 E.02082
G1 X144.395 Y98.571 E.03968
G1 X143.988 Y99.144 E.02204
G1 X143.375 Y100.205 E.03842
G1 X143.058 Y100.886 E.02355
G1 X142.837 Y101.466 E.01946
G1 X142.465 Y102.755 E.04207
G1 X142.275 Y103.921 E.03704
M73 Q3 S21
G1 X142.217 Y105.194 E.03996
G1 X142.244 Y105.879 E.02149
G1 X142.361 Y106.822 E.02979
G1 X142.476 Y107.436 E.01959
G1 X142.743 Y108.393 E.03115
G1 X142.942 Y108.964 E.01896
G1 X143.252 Y109.687 E.02467
G1 X143.604 Y110.368 E.02404
G1 X144.028 Y111.057 E.02537
M73 P3 R21
G1 X144.475 Y111.679 E.02402
G1 X144.981 Y112.284 E.02473
G1 X145.528 Y112.85 E.02468
G1 X146.116 Y113.374 E.02469
G1 X146.749 Y113.86 E.02502
G1 X148.003 Y114.616 E.04591
G1 X148.889 Y115.039 E.03078
G1 X149.537 Y115.286 E.02174
G1 X150.427 Y115.541 E.02903
G1 X151.062 Y115.681 E.02039
G1 X151.863 Y115.796 E.02537
G1 X152.353 Y115.832 E.0154
M204 S1000
G1 X152.79 Y115.476 F10800
M204 S800
;TYPE:External perimeter
G1 F1200
G1 X152.79 Y119.654 E.131
G1 X152.128 Y119.634 E.02077
G1 X151.259 Y119.556 E.02736
G1 X150.395 Y119.425 E.0274
G1 X149.543 Y119.244 E.02731
G1 X148.283 Y118.876 E.04116
G1 X147.469 Y118.571 E.02726
G1 X146.28 Y118.02 E.04109
G1 X145.145 Y117.364 E.0411
G1 X144.426 Y116.874 E.02728
G1 X143.4 Y116.056 E.04114
G1 X142.762 Y115.464 E.02729
G1 X141.87 Y114.503 E.04111
G1 X141.327 Y113.821 E.02733
G1 X140.825 Y113.109 E.02732
G1 X140.152 Y111.982 E.04116
G1 X139.762 Y111.203 E.02731
G1 X139.419 Y110.4 E.02738
G1 X139.125 Y109.58 E.02731
G1 X138.776 Y108.315 E.04114
G1 X138.608 Y107.461 E.02729
G1 X138.451 Y106.159 E.04112
G1 X138.412 Y105.288 E.02734
G1 X138.425 Y104.415 E.02738
G1 X138.49 Y103.545 E.02735
G1 X138.608 Y102.68 E.02737
G1 X138.776 Y101.823 E.02738
G1 X138.996 Y100.979 E.02735
G1 X139.266 Y100.148 E.0274
G1 X139.585 Y99.336 E.02735
G1 X139.951 Y98.544 E.02736
G1 X140.365 Y97.775 E.02738
G1 X140.824 Y97.033 E.02736
G1 X141.327 Y96.319 E.02738
G1 X141.871 Y95.636 E.02738
G1 X142.455 Y94.987 E.02737
G1 X143.077 Y94.375 E.02736
G1 X143.734 Y93.801 E.02735
G1 X144.425 Y93.267 E.02738
G1 X145.145 Y92.776 E.02732
G1 X146.281 Y92.12 E.04113
M73 P4 R21
M73 Q4 S21
G1 X147.065 Y91.742 E.02729
G1 X148.304 Y91.257 E.04172
G1 X149.118 Y91.006 E.02671
G1 X150.397 Y90.714 E.04113
G1 X151.258 Y90.585 E.0273
G1 X152.128 Y90.506 E.02739
G1 X152.79 Y90.486 E.02077
G1 X152.79 Y94.668 E.13112
G1 X152.234 Y94.688 E.01744
G1 X151.456 Y94.776 E.02455
G1 X150.73 Y94.911 E.02315
G1 X149.995 Y95.103 E.02382
G1 X149.275 Y95.349 E.02386
G1 X148.556 Y95.657 E.02453
G1 X147.899 Y95.996 E.02318
G1 X147.351 Y96.332 E.02015
G1 X146.874 Y96.661 E.01817
G1 X146.403 Y97.026 E.01868
G1 X145.952 Y97.415 E.01867
G1 X145.499 Y97.852 E.01974
G1 X144.701 Y98.791 E.03864
G1 X144.313 Y99.335 E.02095
G1 X143.717 Y100.364 E.03728
G1 X143.409 Y101.024 E.02284
G1 X143.189 Y101.6 E.01933
G1 X142.837 Y102.817 E.03972
G1 X142.652 Y103.942 E.03575
G1 X142.594 Y105.181 E.03889
G1 X142.619 Y105.837 E.02058
G1 X142.732 Y106.753 E.02894
G1 X142.841 Y107.34 E.01872
G1 X143.1 Y108.271 E.0303
G1 X143.289 Y108.816 E.01809
G1 X143.587 Y109.515 E.02383
G1 X143.926 Y110.171 E.02315
G1 X144.335 Y110.838 E.02453
G1 X144.765 Y111.438 E.02314
G1 X145.252 Y112.022 E.02384
G1 X145.78 Y112.569 E.02384
G1 X146.347 Y113.076 E.02385
G1 X146.952 Y113.542 E.02394
G1 X148.169 Y114.278 E.04459
G1 X149.024 Y114.687 E.02972
G1 X149.646 Y114.925 E.02088
G1 X150.509 Y115.173 E.02815
G1 X151.117 Y115.308 E.01953
G1 X151.891 Y115.42 E.02452
G1 X152.73 Y115.473 E.02636
M204 S1000
G1 X152.579 Y115.816 F10800
;WIPE_START
G1 F8640
G1 X152.78 Y118.937 E-.8
;WIPE_END
G1 Z.6 F720
G1 X152.244 Y91.812 F10800
G1 Z.2 F720
G1 E.8 F2100
M204 S800
;TYPE:Solid infill
;WIDTH:0.421444
G1 F1200
G1 X151.697 Y91.266 E.02433
G1 X151.212 Y91.316 E.01535
G1 X152.074 Y92.178 E.03837
G1 X152.074 Y92.713 E.01684
G1 X150.747 Y91.386 E.05907
G1 X150.297 Y91.472 E.01442
G1 X152.074 Y93.249 E.0791
G1 X152.074 Y93.784 E.01684
G1 X149.861 Y91.571 E.0985
G1 X149.426 Y91.671 E.01405
G1 X151.775 Y94.021 E.10458
G1 X151.296 Y94.077 E.01518
G1 X149.009 Y91.789 E.10182
G1 X148.6 Y91.916 E.01348
G1 X150.845 Y94.161 E.09993
G1 X150.404 Y94.256 E.0142
G1 X148.211 Y92.063 E.09761
G1 X147.827 Y92.213 E.01298
G1 X149.98 Y94.366 E.09583
G1 X149.571 Y94.493 E.01348
G1 X147.442 Y92.364 E.09477
G1 X147.075 Y92.532 E.0127
G1 X149.171 Y94.628 E.0933
G1 X148.787 Y94.779 E.01299
G1 X146.714 Y92.706 E.09227
G1 X146.369 Y92.896 E.0124
G1 X148.412 Y94.94 E.09096
G1 X148.05 Y95.113 E.01263
G1 X146.029 Y93.092 E.08996
G1 X145.69 Y93.288 E.01232
G1 X147.697 Y95.295 E.08933
G1 X147.355 Y95.489 E.01238
G1 X145.361 Y93.495 E.08876
G1 X145.043 Y93.712 E.01212
G1 X147.024 Y95.693 E.08818
G1 X146.7 Y95.905 E.01219
G1 X144.731 Y93.935 E.08767
G1 X144.429 Y94.169 E.01202
G1 X146.388 Y96.128 E.0872
G1 X146.085 Y96.36 E.01201
G1 X144.131 Y94.406 E.08698
G1 X143.845 Y94.655 E.01194
G1 X145.793 Y96.603 E.08671
G1 X145.506 Y96.851 E.01194
G1 X143.559 Y94.905 E.08664
G1 X143.29 Y95.171 E.01191
G1 X145.233 Y97.114 E.08649
G1 X144.962 Y97.378 E.01191
G1 X143.02 Y95.436 E.08644
G1 X142.764 Y95.715 E.01192
G1 X144.714 Y97.666 E.08682
G1 X144.466 Y97.953 E.01194
G1 X142.51 Y95.997 E.08706
G1 X142.267 Y96.289 E.01196
G1 X144.218 Y98.24 E.08684
G1 X143.993 Y98.551 E.01208
G1 X142.029 Y96.587 E.08742
G1 X141.8 Y96.893 E.01203
G1 X143.77 Y98.863 E.08769
G1 X143.566 Y99.194 E.01224
G1 X141.581 Y97.209 E.08836
G1 X141.362 Y97.525 E.0121
G1 X143.368 Y99.532 E.08931
G1 X143.17 Y99.869 E.0123
G1 X141.157 Y97.856 E.0896
G1 X140.956 Y98.19 E.01227
G1 X142.992 Y100.226 E.09063
G1 X142.822 Y100.591 E.01267
G1 X140.768 Y98.538 E.0914
G1 X140.593 Y98.864 E.01165
G1 X140.582 Y98.887 E.0008
G1 X142.664 Y100.969 E.09267
G1 X142.516 Y101.356 E.01304
G1 X140.413 Y99.253 E.09361
G1 X140.243 Y99.619 E.0127
M73 Q5 S21
G1 X142.389 Y101.764 E.0955
G1 X142.272 Y102.183 E.01369
G1 X140.092 Y100.003 E.09704
G1 X139.941 Y100.387 E.01299
M73 P5 R21
G1 X142.155 Y102.601 E.09855
G1 X142.072 Y103.054 E.0145
G1 X139.81 Y100.791 E.10071
G1 X139.68 Y101.196 E.01339
G1 X141.996 Y103.513 E.10311
G1 X141.934 Y103.986 E.01501
G1 X139.569 Y101.621 E.10527
G1 X139.462 Y102.049 E.01389
G1 X141.906 Y104.493 E.10879
G1 X141.877 Y105 E.01598
G1 X139.374 Y102.496 E.11143
G1 X139.294 Y102.952 E.01457
G1 X141.892 Y105.549 E.11562
G1 X141.93 Y106.123 E.01811
G1 X139.23 Y103.423 E.12018
G1 X139.182 Y103.91 E.0154
G1 X142 Y106.729 E.12546
G1 X142.122 Y107.385 E.021
G1 X139.144 Y104.408 E.13253
G1 X139.134 Y104.933 E.01653
G1 X142.302 Y108.101 E.14101
G1 X142.557 Y108.891 E.02613
G1 X139.138 Y105.472 E.15218
G1 X139.163 Y106.032 E.01764
G1 X143.32 Y110.19 E.18506
M204 S1000
;WIPE_START
G1 F8640
G1 X140.87 Y107.74 E-.8
;WIPE_END
G1 Z.6 F720
G1 X151.761 Y115.954 F10800
G1 Z.2 F720
G1 E.8 F2100
M204 S800
G1 F1200
G1 X152.074 Y116.267 E.01393
G1 X152.074 Y116.802 E.01684
G1 X151.335 Y116.064 E.03287
G1 X150.679 Y115.943 E.021
G1 X152.074 Y117.338 E.06209
G1 X152.074 Y117.873 E.01684
G1 X149.971 Y115.771 E.09359
G1 X149.179 Y115.514 E.02621
G1 X152.074 Y118.408 E.12884
G1 X152.074 Y118.907 E.01571
G1 X152.033 Y118.903 E.0013
G1 X147.866 Y114.736 E.18548
M204 S1000
;WIPE_START
G1 F8640
G1 X150.316 Y117.186 E-.8
;WIPE_END
G1 Z.6 F720
G1 X151.634 Y119.039 F10800
G1 Z.2 F720
G1 E.8 F2100
M204 S800
G1 F1200
G1 X147.044 Y114.449 E.20431
G1 X146.541 Y114.13 E.01875
G1 X145.862 Y113.604 E.02703
G1 X145.288 Y113.09 E.02425
G1 X144.733 Y112.515 E.02515
G1 X144.177 Y111.848 E.02733
G1 X143.73 Y111.222 E.02421
G1 X143.594 Y110.999 E.00822
G1 X139.23 Y106.635 E.19425
G1 X139.303 Y107.244 E.01931
G1 X150.825 Y118.766 E.51286
G1 X150.169 Y118.645 E.021
G1 X139.424 Y107.9 E.47828
G1 X139.601 Y108.612 E.02309
G1 X149.464 Y118.475 E.43902
G1 X148.708 Y118.254 E.02479
G1 X139.805 Y109.352 E.39626
G1 X140.108 Y110.19 E.02805
G1 X147.877 Y117.959 E.34581
G1 X146.901 Y117.518 E.03371
G1 X140.54 Y111.157 E.28314
G1 X140.781 Y111.638 E.01693
G1 X141.218 Y112.371 E.02686
G1 X145.713 Y116.865 E.20006
G1 X145.526 Y116.757 E.0068
G1 X144.851 Y116.297 E.02571
G1 X143.868 Y115.513 E.03957
G1 X143.28 Y114.968 E.02523
G1 X141.665 Y113.353 E.07189
M204 S1000
; stop printing object MMU_2_COLOR_TEST.stl id:0 copy 0
;WIPE_START
G1 F8640
G1 X143.28 Y114.968 E-.52737
G1 X143.868 Y115.513 E-.18512
G1 X144.164 Y115.749 E-.08751
;WIPE_END
G1 Z.6 F720
G1 X133.195 Y112.172 F10800
G1 Z.2 F720
G1 E.8 F2100
;HEIGHT:0.2
;TYPE:Wipe tower
;WIDTH:0.5
;--------------------
; CP TOOLCHANGE START
; toolchange #1
; material : PLA -> PLA
;--------------------
M220 B
M220 S100
; CP TOOLCHANGE UNLOAD
;WIDTH:0.65
G1 X132.695 Y111.782
M900 K0
G1 F1339
G1 X127.116 E0.2816
G1 F1451
G1 X121.071 E0.3051
G1 F1642
G1 X114.230 E0.3453
G1 F1897
G1 X106.326 E0.3990
G1 F2264
G1 X96.894 E0.4761
G1 F2742
G1 X85.470 E0.5767
G1 F3220
G1 X74.195 E0.5691
G1 Y111.002 F7200
G1 F3220
G1 X76.337 E0.1081
G1 F3635
G1 X91.481 E0.7644
G1 F3921
M73 Q6 S21
G1 X107.820 E0.8248
G1 F4033
M73 P6 R21
G1 X124.625 E0.8483
;WIDTH:0.5
G1 E-15.0000 F6000
G1 E-24.5000 F1200
G1 E-7.0000 F600
G1 E-3.5000 F360
M104 S215
G1 Y110.222
G1 X74.195 E20.0000 F454
G1 X124.625 E-20.0000 F303
G1 E-35.0000 F2000
M73 P7 R20
M73 Q7 S20
G1 Y110.362 F2400
G4 S0
G1 Z.6 F720
; Filament-specific end gcode
T1
M900 K0.05 ; Filament gcode LA 1.5
M900 K30 ; Filament gcode LA 1.0

G1 F10800
G1 X124.625 Y110.362
G1 Z.2 F720
G4 S0
; CP TOOLCHANGE LOAD
G1 E12.0000 F1140
G1 X74.070 E42.0000 F1011
G1 X124.625 E6.0000 F708
G1 Y110.862
; CP TOOLCHANGE WIPE
M73 P8 R20
M73 Q8 S20
G1 X132.445 E0.3507 F396
M220 R
G1 F10800
G4 S0
G92 E0
; CP TOOLCHANGE END
;------------------


G1 X132.945 Y98.862 F7200
;HEIGHT:0.2
;TYPE:Wipe tower
;WIDTH:0.5
G1 Y110.362 E0.4371 F1200
G1 X73.945 E2.2424
G1 Y98.862 E0.4371
G1 X132.945 E2.2424
G1 Y110.362
G1 X131.945
;--------------------
; CP EMPTY GRID START
; layer #1
G1 Y109.862 E0.0190
G1 X74.445 E2.1854
G1 Y109.362 E0.0190
M73 P9 R20
M73 Q9 S20
G1 X132.445 E2.2044
G1 Y108.862 E0.0190
G1 X74.445 E2.2044
G1 Y108.362 E0.0190
G1 X132.445 E2.2044
G1 Y107.862 E0.0190
G1 X74.445 E2.2044
G1 Y107.362 E0.0190
G1 X132.445 E2.2044
G1 Y106.862 E0.0190
M73 P10 R20
M73 Q10 S20
G1 X74.445 E2.2044
G1 Y106.362 E0.0190
G1 X132.445 E2.2044
G1 Y105.862 E0.0190
G1 X74.445 E2.2044
G1 Y105.362 E0.0190
G1 X132.445 E2.2044
G1 Y104.862 E0.0190
G1 X74.445 E2.2044
G1 Y104.362 E0.0190
M73 P11 R20
M73 Q11 S20
G1 X132.445 E2.2044
G1 Y103.862 E0.0190
G1 X74.445 E2.2044
G1 Y103.362 E0.0190
M73 P11 R19
G1 X132.445 E2.2044
G1 Y102.862 E0.0190
M73 Q11 S19
G1 X74.445 E2.2044
G1 Y102.362 E0.0190
M73 P12 R19
M73 Q12 S19
G1 X132.445 E2.2044
