; generated by PrusaSlicer 2.5.0+win64 on 2023-02-28 at 12:09:11 UTC


;
;
; 

; external perimeters extrusion width = 0.45mm
; perimeters extrusion width = 0.45mm
; infill extrusion width = 0.45mm
; solid infill extrusion width = 0.45mm
; top infill extrusion width = 0.40mm
; first layer extrusion width = 0.42mm

M73 P0 R32
M73 Q0 S33
M201 X1000 Y1000 Z200 E8000 ; sets maximum accelerations, mm/sec^2
M203 X200 Y200 Z12 E120 ; sets maximum feedrates, mm / sec
M204 P1250 R1250 T1250 ; sets acceleration (P, T) and retract acceleration (R), mm/sec^2
M205 X8.00 Y8.00 Z0.40 E4.50 ; sets the jerk limits, mm/sec
M205 S0 T0 ; sets the minimum extruding and travel feed rate, mm/sec
M107
;TYPE:Custom
M862.3 P "MK3SMMU2S" ; printer model check
M862.1 P0.4 ; nozzle diameter check
M115 U3.11.0 ; tell printer latest fw version
G90 ; use absolute coordinates
M83 ; extruder relative mode
M104 S215 ; set extruder temp
M140 S60 ; set bed temp
M190 S60 ; wait for bed temp
M109 S215 ; wait for extruder temp
G28 W ; home all without mesh bed level
G80 ; mesh bed leveling

; Send the filament type to the MMU2.0 unit.
; E stands for extruder number, F stands for filament type (0: default; 1:flex; 2: PVA)
M403 E0 F0
M403 E1 F0
M403 E2 F0
M403 E3 F0
M403 E4 F0


;go outside print area
G1 Y-3 F1000
G1 Z0.4 F1000
; select extruder
T0
; initial load
G1 X55 E29 F1073
M73 Q0 S32
G1 X5 E29 F1800
G1 X55 E8 F2000
G1 Z0.3 F1000
G92 E0
G1 X240 E25 F2200
G1 Y-2 F1000
G1 X55 E25 F1400
G1 Z0.2 F1000
G1 X5 E4 F1000
G92 E0


M221 S95
G92 E0

; Don't change E values below. Excessive value can damage the printer.

M907 E538 ; set extruder motor current
G21 ; set units to millimeters
G90 ; use absolute coordinates
M83 ; use relative distances for extrusion
T0
M900 K0.05 ; Filament gcode LA 1.5
M900 K30 ; Filament gcode LA 1.0
G1 Z.2 F720
M107
;LAYER_CHANGE
;Z:0.2
;HEIGHT:0.2
;BEFORE_LAYER_CHANGE
G92 E0.0
;0.2


M73 P1 R32
M73 Q1 S32
G1 E-.8 F2100
G1 Z.6 F720
G1 Z.2
;AFTER_LAYER_CHANGE
;0.2
G1 Z.6
G1 X155.456 Y71.97 F10800
G1 Z.2 F720
G1 E.8 F2100
;HEIGHT:0.2
;TYPE:Wipe tower
;WIDTH:0.5
G1  X155.456 Y89.311  E0.6590 F1200
G1  X96.456  E2.2424
G1  Y71.970  E0.6590
G1  X155.456  E2.2424
G1  Y89.311 
G1  X154.456 
;--------------------
; CP EMPTY GRID START
; layer #1
G1  Y88.811  E0.0190
G1  X96.956  E2.1854
G1  Y88.299  E0.0194
G1  X154.956  E2.2044
G1  Y87.789  E0.0194
G1  X96.956  E2.2044
G1  Y87.278  E0.0194
M73 P2 R32
M73 Q2 S32
G1  X154.956  E2.2044
G1  Y86.768  E0.0194
G1  X96.956  E2.2044
G1  Y86.257  E0.0194
G1  X154.956  E2.2044
G1  Y85.746  E0.0194
G1  X96.956  E2.2044
G1  Y85.236  E0.0194
G1  X154.956  E2.2044
G1  Y84.725  E0.0194
G1  X96.956  E2.2044
G1  Y84.215  E0.0194
M73 Q3 S32
G1  X154.956  E2.2044
G1  Y83.704  E0.0194
M73 P3 R31
M73 Q3 S31
G1  X96.956  E2.2044
G1  Y83.193  E0.0194
G1  X154.956  E2.2044
G1  Y82.683  E0.0194
G1  X96.956  E2.2044
G1  Y82.173  E0.0194
G1  X154.956  E2.2044
G1  Y81.661  E0.0194
G1  X96.956  E2.2044
G1  Y81.151  E0.0194
G1  X154.956  E2.2044
G1  Y80.640  E0.0194
M73 P4 R31
M73 Q4 S31
G1  X96.956  E2.2044
G1  Y80.130  E0.0194
G1  X154.956  E2.2044
G1  Y79.619  E0.0194
G1  X96.956  E2.2044
G1  Y79.108  E0.0194
G1  X154.956  E2.2044
G1  Y78.598  E0.0194
G1  X96.956  E2.2044
G1  Y78.087  E0.0194
G1  X154.956  E2.2044
G1  Y77.576  E0.0194
G1  X96.956  E2.2044
G1  Y77.066  E0.0194
M73 P5 R31
M73 Q5 S31
G1  X154.956  E2.2044
G1  Y76.555  E0.0194
G1  X96.956  E2.2044
G1  Y76.044  E0.0194
G1  X154.956  E2.2044
G1  Y75.535  E0.0194
G1  X96.956  E2.2044
G1  Y75.023  E0.0194
G1  X154.956  E2.2044
G1  Y74.513  E0.0194
G1  X96.956  E2.2044
G1  Y74.002  E0.0194
G1  X154.956  E2.2044
G1  Y73.492  E0.0194
M73 P6 R30
M73 Q6 S30
G1  X96.956  E2.2044
G1  Y72.981  E0.0194
G1  X154.956  E2.2044
G1  Y72.470  E0.0194
G1  X96.956  E2.2044
G1  Y71.970  E0.0190
; CP EMPTY GRID END
;------------------






G1  X95.956 
G1  Y71.470 
G1  X155.956  E2.2804
G1  Y89.811  E0.6970
G1  X95.956  E2.2804
G1  Y71.470  E0.6970
G1  X95.499 
G1  Y71.013 
G1  X156.413  E2.3151
G1  Y90.268  E0.7318
M73 P7 R30
M73 Q7 S30
G1  X95.499  E2.3151
G1  Y71.013  E0.7318
G1  X95.042 
G1  Y70.556 
G1  X156.870  E2.3499
G1  Y90.724  E0.7665
G1  X95.042  E2.3499
G1  Y70.556  E0.7665
G1  X94.585 
G1  Y70.099 
G1  X157.327  E2.3846
G1  Y91.181  E0.8013
G1  X94.585  E2.3846
M73 P8 R30
M73 Q8 S30
G1  Y70.099  E0.8013
G1  X94.128 
G1  Y69.642 
G1  X157.784  E2.4194
G1  Y91.638  E0.8360
G1  X94.128  E2.4194
G1  Y69.642  E0.8360

;WIPE_START
G1 F8640
G1 X97.419 Y69.642 E-.76
;WIPE_END
G1 E-.04 F2100
G1 Z.6 F720
G1 X93.148 Y67.359 F10800
G1 Z.2 F720
G1 E.8 F2100
M204 S800
;TYPE:Skirt/Brim
;WIDTH:0.42
;HEIGHT:0.2
G1 F1200
G1 X93.899 Y67.037 E.02565
G1 X158.013 Y67.037 E2.01024
G1 X159.32 Y67.428 E.04278
G1 X160.324 Y68.857 E.05476
G1 X172.865 Y120.95 E1.67999
G1 X172.963 Y122.419 E.04618
M73 Q9 S30
G1 X172.912 Y122.994 E.01808
G1 X172.631 Y124.234 E.03988
G1 X169.962 Y132.042 E.25872
G1 X169.376 Y133.21 E.04096
M73 P9 R30
G1 X168.558 Y134.251 E.04152
G1 X167.561 Y135.091 E.04088
G1 X166.632 Y135.63 E.03367
G1 X160.473 Y138.497 E.21301
G1 X159.334 Y138.93 E.03821
G1 X158.035 Y139.244 E.04189
G1 X156.249 Y139.43 E.0563
G1 X87.831 Y139.436 E2.14519
G1 X86.775 Y139.319 E.03334
M73 P9 R29
M73 Q9 S29
G1 X85.485 Y138.872 E.04279
G1 X84.948 Y138.562 E.01944
G1 X83.92 Y137.672 E.04265
G1 X83.148 Y136.534 E.04312
G1 X82.702 Y135.241 E.04288
G1 X82.605 Y134.497 E.02354
G1 X82.605 Y119.137 E.48159
G1 X91.559 Y68.994 E1.59707
G1 X92.176 Y67.777 E.04278
G1 X93.092 Y67.383 E.03128
M204 S1000
; printing object PRUSA_KEYCHAIN.stl id:0 copy 0
;WIPE_START
G1 F8640
G1 X93.899 Y67.037 E-.20274
G1 X96.313 Y67.037 E-.55726
;WIPE_END
G1 E-.04 F2100
G1 Z.6 F720
G1 X164.547 Y132.689 F10800
G1 Z.2 F720
G1 E.8 F2100
M204 S800
;TYPE:Perimeter
;WIDTH:0.534064
G1 F1200
G1 X164.407 Y132.78 E.00686
;WIDTH:0.486317
G1 X164.126 Y132.93 E.0117
;WIDTH:0.453158
G1 X163.846 Y133.079 E.01083
;WIDTH:0.419999
G1 X159.183 Y135.255 E.16135
G1 X158.17 Y135.641 E.03401
G1 X157.136 Y135.87 E.03318
G1 X156.051 Y135.949 E.03412
G1 X87.883 Y135.949 E2.13736
G1 X87.377 Y135.882 E.016
G1 X86.956 Y135.707 E.01429
G1 X86.592 Y135.429 E.01435
G1 X86.314 Y135.066 E.01434
G1 X86.14 Y134.645 E.0143
G1 X86.073 Y134.138 E.01601
G1 X86.073 Y119.734 E.45164
G1 X86.127 Y119.085 E.02041
G1 X86.279 Y118.654 E.01434
G1 X86.524 Y118.296 E.01357
G1 X86.894 Y117.976 E.01535
G1 X87.376 Y117.752 E.01668
G1 X87.882 Y117.687 E.01599
G1 X164.119 Y117.687 E2.39035
G1 X164.974 Y117.762 E.02689
G1 X165.77 Y117.975 E.02584
G1 X166.407 Y118.272 E.02205
G1 X166.674 Y118.433 E.00979
G1 X167.321 Y118.899 E.02497
;WIDTH:0.459702
G1 X167.496 Y119.072 E.00855
;WIDTH:0.499405
G1 X167.672 Y119.245 E.00937
;WIDTH:0.539108
G1 X167.848 Y119.419 E.01018
G1 X167.708 Y119.376 E.00605
;WIDTH:0.494194
G1 X167.355 Y119.283 E.0137
;WIDTH:0.457097
G1 X167.002 Y119.19 E.01257
;WIDTH:0.419999
G1 X166.284 Y119.147 E.02256
G1 X165.574 Y119.276 E.0226
G1 X164.919 Y119.569 E.02252
G1 X164.348 Y120.011 E.02263
G1 X163.897 Y120.581 E.02277
G1 X163.625 Y121.16 E.02007
G1 X161.023 Y128.842 E.25431
G1 X160.892 Y129.596 E.02398
G1 X160.959 Y130.376 E.02454
G1 X161.229 Y131.107 E.02445
G1 X161.677 Y131.744 E.0244
G1 X162.275 Y132.244 E.02445
G1 X162.983 Y132.571 E.02445
G1 X163.75 Y132.705 E.02442
;WIDTH:0.458021
M73 Q10 S29
G1 X164.016 Y132.7 E.00917
;WIDTH:0.496043
G1 X164.282 Y132.694 E.01001
;WIDTH:0.534064
G1 X164.487 Y132.69 E.0084
M204 S1000
;WIPE_START
G1 F8640
G1 X164.407 Y132.78 E-.02801
G1 X164.126 Y132.93 E-.07331
G1 X163.846 Y133.079 E-.07331
G1 X161.549 Y134.151 E-.58538
;WIPE_END
G1 E-.04 F2100
G1 Z.6 F720
G1 X87.278 Y117.385 F10800
G1 Z.2 F720
M73 P10 R29
G1 E.8 F2100
M204 S800
;TYPE:External perimeter
;WIDTH:0.419999
G1 F1200
G1 X87.858 Y117.31 E.01833
G1 X164.136 Y117.31 E2.39163
G1 X165.039 Y117.389 E.02844
G1 X165.899 Y117.619 E.02791
G1 X166.706 Y117.996 E.02792
G1 X167.45 Y118.516 E.02848
G1 X168.713 Y119.593 E.05203
G1 X169.255 Y120.208 E.02573
G1 X169.634 Y120.934 E.02566
G1 X169.826 Y121.666 E.02372
G1 X169.852 Y122.434 E.02412
G1 X169.678 Y123.257 E.02636
G1 X167.109 Y130.8 E.24985
G1 X166.817 Y131.443 E.02212
G1 X166.413 Y131.996 E.02147
G1 X165.904 Y132.459 E.02159
G1 X165.297 Y132.818 E.02212
G1 X159.33 Y135.603 E.20645
G1 X158.278 Y136.004 E.03531
G1 X157.191 Y136.244 E.03491
G1 X156.065 Y136.326 E.03541
G1 X87.858 Y136.326 E2.13856
G1 X87.278 Y136.249 E.01833
G1 X86.766 Y136.037 E.0174
G1 X86.323 Y135.698 E.01747
G1 X85.985 Y135.256 E.01746
G1 X85.772 Y134.743 E.0174
G1 X85.696 Y134.163 E.01834
G1 X85.696 Y119.471 E.46066
G1 X85.772 Y118.893 E.01827
G1 X85.985 Y118.379 E.01744
G1 X86.324 Y117.938 E.01745
G1 X86.766 Y117.598 E.01751
G1 X87.223 Y117.408 E.01549
M204 S1000
G1 X87.561 Y117.668 F10800
;WIPE_START
G1 F8640
G1 X87.858 Y117.31 E-.14837
G1 X90.507 Y117.31 E-.61163
;WIPE_END
G1 E-.04 F2100
G1 Z.6 F720
G1 X165.624 Y131.651 F10800
G1 Z.2 F720
G1 E.8 F2100
M204 S800
G1 F1200
G1 X165.575 Y131.704 E.00225
G1 X165.049 Y132.052 E.01979
G1 X164.407 Y132.278 E.02133
G1 X163.726 Y132.329 E.02142
G1 X163.057 Y132.202 E.02134
G1 X162.442 Y131.906 E.0214
G1 X161.894 Y131.424 E.02288
G1 X161.542 Y130.898 E.01984
G1 X161.316 Y130.254 E.0214
G1 X161.268 Y129.573 E.0214
G1 X161.399 Y128.892 E.02174
G1 X163.982 Y121.282 E.252
G1 X164.238 Y120.743 E.01869
G1 X164.638 Y120.252 E.01986
G1 X165.143 Y119.873 E.01979
G1 X165.721 Y119.623 E.01974
G1 X166.343 Y119.519 E.01976
G1 X166.971 Y119.566 E.01975
G1 X167.573 Y119.767 E.01991
G1 X168.107 Y120.102 E.01977
G1 X168.546 Y120.556 E.01981
G1 X168.863 Y121.103 E.0198
G1 X169.039 Y121.708 E.01975
G1 X169.067 Y122.338 E.01978
G1 X168.92 Y123.024 E.02199
G1 X166.344 Y130.576 E.2502
G1 X166.106 Y131.058 E.01685
G1 X165.803 Y131.454 E.01564
G1 X165.664 Y131.606 E.00646
M204 S1000
G1 X165.647 Y131.719 F10800
;WIPE_START
G1 F8640
G1 X165.575 Y131.704 E-.03044
G1 X165.049 Y132.052 E-.14577
G1 X164.407 Y132.278 E-.15709
G1 X163.726 Y132.329 E-.15776
G1 X163.057 Y132.202 E-.15714
G1 X162.621 Y131.992 E-.1118
;WIPE_END
G1 E-.04 F2100
G1 Z.6 F720
G1 X157.159 Y118.727 F10800
G1 Z.2 F720
G1 E.8 F2100
M204 S800
;TYPE:Perimeter
G1 F1200
G1 X157.402 Y118.808 E.00805
G1 X157.585 Y119.043 E.00933
G1 X157.629 Y119.261 E.00696
G1 X157.629 Y134.093 E.46508
G1 X157.469 Y134.487 E.01332
G1 X157.185 Y134.646 E.0102
G1 X157.088 Y134.659 E.00308
G1 X150.347 Y134.659 E.21136
G1 X148.916 Y134.536 E.04504
G1 X147.824 Y134.229 E.03555
G1 X146.811 Y133.706 E.03576
G1 X146.175 Y133.181 E.02584
G1 X145.898 Y132.925 E.01182
G1 X145.359 Y132.191 E.02853
G1 X144.928 Y131.267 E.03199
;WIDTH:0.452938
G1 X144.67 Y130.297 E.03422
G1 X144.601 Y129.299 E.03409
;WIDTH:0.450536
G1 X144.653 Y128.315 E.03341
G1 X144.893 Y127.349 E.03374
;WIDTH:0.419999
G1 X145.294 Y126.419 E.03175
G1 X145.901 Y125.58 E.03248
G1 X146.709 Y124.872 E.03368
G1 X147.711 Y124.324 E.03582
G1 X149.023 Y123.953 E.04275
G1 X150.347 Y123.849 E.04162
G1 X152.886 Y123.849 E.07963
G1 X152.886 Y119.261 E.14387
G1 X152.93 Y119.043 E.00696
G1 X153.113 Y118.808 E.00933
G1 X153.452 Y118.695 E.01122
G1 X157.063 Y118.695 E.11322
G1 X157.102 Y118.708 E.00129
M204 S1000
G1 X157.063 Y119.072 F10800
M204 S800
;TYPE:External perimeter
G1 F1200
G1 X157.176 Y119.11 E.00374
G1 X157.251 Y119.261 E.00529
G1 X157.251 Y134.093 E.46508
G1 X157.198 Y134.225 E.00444
G1 X157.071 Y134.282 E.00437
G1 X150.347 Y134.282 E.21085
G1 X149.053 Y134.179 E.04068
G1 X147.926 Y133.866 E.03669
G1 X146.988 Y133.373 E.03324
G1 X146.202 Y132.701 E.03239
G1 X145.663 Y131.968 E.02853
G1 X145.271 Y131.112 E.02953
G1 X145.053 Y130.206 E.02921
G1 X144.975 Y129.269 E.02947
G1 X145.044 Y128.345 E.02906
G1 X145.259 Y127.437 E.02927
G1 X145.638 Y126.571 E.02962
G1 X146.203 Y125.805 E.02985
G1 X146.954 Y125.158 E.03105
G1 X147.888 Y124.657 E.03325
G1 X149.053 Y124.329 E.03795
G1 X150.347 Y124.226 E.04068
G1 X153.263 Y124.226 E.09146
G1 X153.263 Y119.261 E.15569
G1 X153.339 Y119.11 E.00529
G1 X153.452 Y119.072 E.00374
G1 X157.003 Y119.072 E.11134
M204 S1000
G1 X157.143 Y118.984 F10800
;WIPE_START
G1 F8640
G1 X157.176 Y119.11 E-.04091
G1 X157.251 Y119.261 E-.03894
G1 X157.251 Y122.206 E-.68015
;WIPE_END
G1 E-.04 F2100
G1 Z.6 F720
G1 X167.848 Y119.419 F10800
G1 Z.2 F720
M73 Q11 S29
G1 E.8 F2100
M204 S800
;TYPE:Perimeter
;WIDTH:0.539108
G1 F1200
G1 X168.085 Y119.592 E.01212
;WIDTH:0.501134
G1 X168.321 Y119.766 E.01119
;WIDTH:0.46316
G1 X168.829 Y120.288 E.02542
;WIDTH:0.446544
G1 X169.202 Y120.91 E.02437
G1 X169.414 Y121.602 E.02428
;WIDTH:0.447232
G1 X169.457 Y122.324 E.02432
G1 X169.328 Y123.025 E.02395
;WIDTH:0.458444
G1 X169.295 Y123.152 E.00452
;WIDTH:0.462162
G1 X166.738 Y130.653 E.27628
;WIDTH:0.473292
G1 X166.467 Y131.238 E.02306
;WIDTH:0.479718
G1 X166.109 Y131.722 E.02186
G1 X165.662 Y132.132 E.02201
;WIDTH:0.47506
G1 X165.151 Y132.443 E.0215
;WIDTH:0.496856
G1 X164.849 Y132.566 E.01231
;WIDTH:0.534064
G1 X164.547 Y132.689 E.01332
M204 S1000
;WIPE_START
G1 F8640
G1 X164.849 Y132.566 E-.07529
G1 X165.151 Y132.443 E-.07529
G1 X165.662 Y132.132 E-.13816
G1 X166.109 Y131.722 E-.13992
G1 X166.467 Y131.238 E-.139
M73 P11 R29
G1 X166.738 Y130.653 E-.14882
G1 X166.799 Y130.475 E-.04352
;WIPE_END
G1 E-.04 F2100
G1 Z.6 F720
G1 X132.39 Y126.263 F10800
G1 Z.2 F720
G1 E.8 F2100
M204 S800
;WIDTH:0.419999
G1 F1200
G1 X132.12 Y126.115 E.00965
G1 X131.822 Y125.842 E.01266
G1 X131.498 Y125.406 E.01704
G1 X131.212 Y124.787 E.02137
G1 X131.03 Y124.164 E.02036
G1 X130.856 Y122.933 E.03896
G1 X130.751 Y121.217 E.05391
G1 X130.609 Y120.409 E.02574
G1 X130.424 Y119.982 E.01458
G1 X130.289 Y119.752 E.00836
G1 X130.232 Y119.352 E.01268
G1 X130.42 Y118.973 E.01325
G1 X130.609 Y118.777 E.00854
G1 X130.911 Y118.689 E.00987
G1 X134.376 Y118.689 E.10865
G1 X134.753 Y118.833 E.01264
G1 X134.922 Y119.105 E.01005
G1 X135.177 Y120.035 E.03023
G1 X135.308 Y121.028 E.03139
G1 X135.489 Y122.802 E.05592
G1 X135.604 Y123.33 E.01696
G1 X135.82 Y123.837 E.01728
G1 X136.091 Y124.111 E.01206
G1 X136.567 Y124.263 E.01566
G1 X137.08 Y124.308 E.01614
G1 X139.488 Y124.311 E.07552
G1 X139.488 Y119.245 E.15885
G1 X139.532 Y119.027 E.00696
G1 X139.715 Y118.792 E.00933
G1 X140.054 Y118.679 E.01122
G1 X143.665 Y118.679 E.11322
G1 X144.004 Y118.792 E.01122
G1 X144.187 Y119.027 E.00933
G1 X144.23 Y119.245 E.00696
G1 X144.23 Y127.271 E.25165
;WIDTH:0.460345
G1 X144.251 Y128.174 E.03137
G1 X144.229 Y129.197 E.03551
;WIDTH:0.452673
G1 X144.247 Y130.225 E.03505
G1 X144.23 Y131.242 E.03464
;WIDTH:0.419999
G1 X144.23 Y134.077 E.0889
G1 X144.215 Y134.209 E.00414
G1 X144.051 Y134.491 E.01022
G1 X143.763 Y134.635 E.01011
G1 X135.664 Y134.643 E.25392
G1 X134.666 Y134.56 E.03141
G1 X133.693 Y134.295 E.0316
G1 X132.829 Y133.864 E.03028
G1 X132.127 Y133.322 E.02782
G1 X131.489 Y132.594 E.03034
G1 X131.045 Y131.78 E.02907
G1 X130.772 Y130.894 E.02907
G1 X130.672 Y129.95 E.02977
G1 X130.706 Y129.221 E.02289
G1 X130.824 Y128.553 E.02125
G1 X131.015 Y127.929 E.02048
G1 X131.296 Y127.335 E.02058
G1 X131.647 Y126.846 E.01887
G1 X131.892 Y126.605 E.01077
G1 X132.34 Y126.297 E.01707
M204 S1000
G1 X133.264 Y126.288 F10800
M204 S800
;TYPE:External perimeter
G1 F1200
G1 X132.364 Y125.827 E.03171
G1 X132.125 Y125.618 E.00997
G1 X131.801 Y125.181 E.01704
G1 X131.558 Y124.636 E.01872
G1 X131.393 Y124.061 E.01875
G1 X131.233 Y122.91 E.03643
G1 X131.126 Y121.173 E.05457
G1 X130.975 Y120.315 E.02733
G1 X130.793 Y119.866 E.0152
G1 X130.619 Y119.569 E.01078
G1 X130.62 Y119.384 E.00581
G1 X130.81 Y119.095 E.01084
G1 X130.911 Y119.066 E.00329
G1 X134.376 Y119.066 E.10865
G1 X134.502 Y119.114 E.00421
G1 X134.558 Y119.205 E.00335
G1 X134.813 Y120.135 E.03023
G1 X134.933 Y121.066 E.02943
G1 X135.115 Y122.858 E.05647
G1 X135.247 Y123.449 E.01901
G1 X135.436 Y123.915 E.01575
G1 X135.691 Y124.28 E.01398
G1 X136.017 Y124.49 E.01214
G1 X136.488 Y124.631 E.01543
G1 X137.057 Y124.684 E.0179
G1 X139.865 Y124.688 E.08807
G1 X139.865 Y119.245 E.17068
G1 X139.941 Y119.094 E.00529
G1 X140.054 Y119.056 E.00374
G1 X143.665 Y119.056 E.11322
G1 X143.778 Y119.094 E.00374
G1 X143.853 Y119.245 E.00529
