; generated by PrusaSlicer 2.5.0+win64 on 2023-02-24 at 21:17:37 UTC


;
;
; 

; external perimeters extrusion width = 0.45mm
; perimeters extrusion width = 0.45mm
; infill extrusion width = 0.45mm
; solid infill extrusion width = 0.45mm
; top infill extrusion width = 0.40mm
; first layer extrusion width = 0.45mm

; external perimeters extrusion width = 0.45mm
; perimeters extrusion width = 0.45mm
; infill extrusion width = 0.45mm
; solid infill extrusion width = 0.45mm
; top infill extrusion width = 0.40mm
; first layer extrusion width = 0.45mm

; external perimeters extrusion width = 0.45mm
; perimeters extrusion width = 0.45mm
; infill extrusion width = 0.45mm
; solid infill extrusion width = 0.45mm
; top infill extrusion width = 0.40mm
; first layer extrusion width = 0.45mm

; external perimeters extrusion width = 0.45mm
; perimeters extrusion width = 0.45mm
; infill extrusion width = 0.45mm
; solid infill extrusion width = 0.45mm
; top infill extrusion width = 0.40mm
; first layer extrusion width = 0.45mm

; external perimeters extrusion width = 0.45mm
; perimeters extrusion width = 0.45mm
; infill extrusion width = 0.45mm
; solid infill extrusion width = 0.45mm
; top infill extrusion width = 0.40mm
; first layer extrusion width = 0.45mm

M73 P0 R85
M73 Q0 S85
M201 X1000 Y1000 Z200 E8000 ; sets maximum accelerations, mm/sec^2
M203 X200 Y200 Z12 E120 ; sets maximum feedrates, mm / sec
M204 P1250 R1250 T1250 ; sets acceleration (P, T) and retract acceleration (R), mm/sec^2
M205 X8.00 Y8.00 Z0.40 E4.50 ; sets the jerk limits, mm/sec
M205 S0 T0 ; sets the minimum extruding and travel feed rate, mm/sec
M107
;TYPE:Custom
M862.3 P "MK3SMMU2S" ; printer model check
M862.1 P0.4 ; nozzle diameter check
M115 U3.11.0 ; tell printer latest fw version
G90 ; use absolute coordinates
M83 ; extruder relative mode
M104 S215 ; set extruder temp
M140 S60 ; set bed temp
M190 S60 ; wait for bed temp
M109 S215 ; wait for extruder temp
G28 W ; home all without mesh bed level
G80 ; mesh bed leveling

; Send the filament type to the MMU2.0 unit.
; E stands for extruder number, F stands for filament type (0: default; 1:flex; 2: PVA)
M403 E0 F0
M403 E1 F0
M403 E2 F0
M403 E3 F0
M403 E4 F0


;go outside print area
G1 Y-3 F1000
G1 Z0.4 F1000
; select extruder
T0
; initial load
G1 X55 E29 F1073
G1 X5 E29 F1800
G1 X55 E8 F2000
G1 Z0.3 F1000
G92 E0
G1 X240 E25 F2200
G1 Y-2 F1000
G1 X55 E25 F1400
G1 Z0.2 F1000
M73 P0 R84
G1 X5 E4 F1000
G92 E0


M221 S95
G92 E0

; Don't change E values below. Excessive value can damage the printer.
M907 E430 ; set extruder motor current
G21 ; set units to millimeters
G90 ; use absolute coordinates
M83 ; use relative distances for extrusion
T0
M900 K0.05 ; Filament gcode LA 1.5
M900 K30 ; Filament gcode LA 1.0
G1 Z.2 F720
M107
;LAYER_CHANGE
;Z:0.2
;HEIGHT:0.2
;BEFORE_LAYER_CHANGE
G92 E0.0
;0.2


G1 E-.8 F2100
G1 Z.6 F720
G1 Z.2
;AFTER_LAYER_CHANGE
;0.2
G1 Z.6
G1 X80.913 Y72.381 F10800
G1 Z.2 F720
G1 E.8 F2100
M204 S800
;TYPE:Skirt/Brim
;WIDTH:0.45
;HEIGHT:0.2
G1 F1200
G1 X82.23 Y70.936 E.06618
G1 X83.741 Y69.641 E.06737
G1 X85.424 Y68.528 E.06829
G1 X87.26 Y67.628 E.06922
G1 X88.95 Y67.05 E.06045
G1 X90.829 Y66.668 E.0649
G1 X92.834 Y66.545 E.06799
G1 X204.041 Y67.78 E3.76445
G1 X205.353 Y68.186 E.04648
G1 X206.229 Y69.244 E.04648
G1 X206.421 Y70.187 E.03259
G1 X206.421 Y149.661 E2.69009
G1 X206.03 Y150.977 E.04648
G1 X204.982 Y151.865 E.04648
G1 X204.014 Y152.068 E.03347
G1 X139.901 Y152.068 E2.17017
G1 X139.382 Y152.011 E.01766
G1 X78.286 Y138.529 E2.11777
G1 X76.564 Y137.932 E.06168
G1 X74.994 Y136.979 E.06219
G1 X73.836 Y135.914 E.05324
G1 X72.806 Y134.518 E.05874
G1 X72.13 Y133.098 E.05324
G1 X71.682 Y131.316 E.06219
G1 X69.671 Y110.12 E.72069
G1 X69.875 Y105.416 E.15937
M73 Q0 S84
G1 X70.204 Y103.374 E.07002
G1 X77.303 Y79.38 E.84696
G1 X78.447 Y76.412 E.10766
G1 X79.648 Y74.167 E.08619
G1 X80.878 Y72.43 E.07206
M204 S1000
; printing object prusa clippy v5.stl id:0 copy 0
;WIPE_START
G1 F8640
G1 X82.23 Y70.936 E-.46519
G1 X83.2 Y70.105 E-.29481
;WIPE_END
G1 E-.04 F2100
G1 Z.6 F720
G1 X86.288 Y116.002 F10800
G1 Z.2 F720
G1 E.8 F2100
M204 S800
;TYPE:Perimeter
;WIDTH:0.449999
G1 F1200
G1 X87.244 Y115.837 E.03283
G1 X87.756 Y115.683 E.01809
G1 X88.145 Y115.941 E.0158
G1 X88.586 Y116.177 E.01693
G1 X89.247 Y116.409 E.02371
G1 X90.012 Y116.561 E.02639
G1 X90.673 Y116.606 E.02243
G1 X91.52 Y116.563 E.02873
G1 X92.363 Y116.418 E.02895
G1 X93.063 Y116.217 E.02463
G1 X93.831 Y115.896 E.02821
G1 X94.583 Y115.425 E.03001
G1 X95.015 Y115.078 E.01876
G1 X95.461 Y114.598 E.02219
G1 X95.827 Y114.044 E.02248
G1 X96.111 Y113.361 E.02505
G1 X96.314 Y112.527 E.02903
G1 X97.154 Y112.23 E.03016
G1 X97.624 Y112.015 E.0175
G1 X97.517 Y112.836 E.02804
G1 X97.286 Y113.719 E.0309
G1 X97.094 Y114.215 E.01799
G1 X96.869 Y114.667 E.01709
G1 X96.361 Y115.425 E.03089
G1 X95.75 Y116.071 E.03012
G1 X95.341 Y116.414 E.01804
G1 X94.831 Y116.761 E.02091
G1 X94.388 Y117.008 E.01716
G1 X93.916 Y117.229 E.01762
G1 X93.429 Y117.416 E.01768
G1 X92.926 Y117.571 E.01779
G1 X92.357 Y117.703 E.01977
G1 X91.625 Y117.812 E.02506
G1 X91.111 Y117.848 E.01746
G1 X90.506 Y117.843 E.02048
G1 X89.838 Y117.787 E.02268
G1 X89.34 Y117.702 E.0171
G1 X88.762 Y117.549 E.02022
G1 X87.984 Y117.249 E.02825
G1 X87.532 Y117.009 E.01731
G1 X87.114 Y116.735 E.01693
G1 X86.708 Y116.412 E.01756
G1 X86.331 Y116.044 E.01782
M204 S1000
G1 X85.53 Y115.727 F10800
M204 S800
;TYPE:External perimeter
G1 F1200
G1 X87.201 Y115.43 E.05744
G1 X87.841 Y115.231 E.02269
G1 X88.174 Y115.492 E.01435
G1 X88.724 Y115.794 E.02122
G1 X89.331 Y116.01 E.02182
G1 X90.042 Y116.155 E.02455
G1 X90.654 Y116.199 E.02078
G1 X91.453 Y116.161 E.02708
G1 X92.253 Y116.026 E.02745
G1 X92.908 Y115.841 E.02304
G1 X93.629 Y115.543 E.0264
G1 X94.184 Y115.221 E.02174
G1 X94.72 Y114.797 E.02313
G1 X95.124 Y114.369 E.01991
G1 X95.458 Y113.873 E.02024
G1 X95.72 Y113.248 E.02295
G1 X95.875 Y112.706 E.01906
G1 X95.952 Y112.203 E.01725
G1 X96.773 Y111.94 E.02918
G1 X97.262 Y111.733 E.01798
G1 X98.063 Y111.342 E.03016
G1 X98.052 Y111.769 E.01447
G1 X97.954 Y112.664 E.03047
G1 X97.824 Y113.268 E.02093
G1 X97.653 Y113.899 E.02212
G1 X97.446 Y114.421 E.01902
G1 X97.115 Y115.031 E.0235
G1 X96.574 Y115.793 E.03162
G1 X95.952 Y116.438 E.03034
G1 X95.547 Y116.766 E.01764
G1 X95.007 Y117.129 E.02201
G1 X94.562 Y117.376 E.01726
G1 X94.063 Y117.608 E.0186
G1 X93.504 Y117.819 E.02022
G1 X93.02 Y117.967 E.01716
G1 X92.419 Y118.105 E.02086
G1 X91.655 Y118.218 E.02614
G1 X91.113 Y118.255 E.01838
G1 X90.474 Y118.249 E.02162
G1 X89.771 Y118.188 E.02388
G1 X89.242 Y118.097 E.01819
G1 X88.722 Y117.965 E.01815
G1 X88.217 Y117.792 E.01809
G1 X87.735 Y117.58 E.01781
G1 X87.286 Y117.335 E.01732
G1 X86.842 Y117.04 E.01803
G1 X86.427 Y116.707 E.01801
G1 X86.038 Y116.333 E.01827
G1 X85.568 Y115.773 E.02474
M204 S1000
G1 X85.925 Y115.79 F10800
;WIPE_START
G1 F8640
G1 X87.201 Y115.43 E-.38513
G1 X87.841 Y115.231 E-.15477
G1 X88.174 Y115.492 E-.09786
G1 X88.638 Y115.747 E-.12224
;WIPE_END
G1 E-.04 F2100
G1 Z.6 F720
G1 X83.666 Y111.076 F10800
G1 Z.2 F720
G1 E.8 F2100
M204 S800
;TYPE:Perimeter
G1 F1200
G1 X84.837 Y110.627 E.04243
G1 X85.447 Y111.968 E.04988
G1 X84.784 Y111.935 E.02248
G1 X84.002 Y111.832 E.02669
G1 X83.691 Y111.13 E.02597
M204 S1000
G1 X83.11 Y110.826 F10800
M204 S800
;TYPE:External perimeter
G1 F1200
G1 X84.176 Y110.455 E.03822
G1 X85.036 Y110.07 E.0319
G1 X85.556 Y111.25 E.04364
G1 X86.069 Y112.326 E.04033
G1 X85.847 Y112.373 E.00767
G1 X85.027 Y112.379 E.02778
G1 X83.728 Y112.217 E.04428
G1 X83.134 Y110.88 E.04953
M204 S1000
G1 X83.51 Y110.827 F10800
;WIPE_START
G1 F8640
G1 X84.176 Y110.455 E-.25992
G1 X85.036 Y110.07 E-.21759
G1 X85.529 Y111.19 E-.2825
;WIPE_END
G1 E-.04 F2100
G1 Z.6 F720
G1 X96.461 Y107.935 F10800
G1 Z.2 F720
G1 E.8 F2100
M204 S800
;TYPE:Perimeter
;WIDTH:0.309414
G1 F1200
G1 X96.066 Y108.175 E.01024
G1 X95.825 Y108.268 E.00574
G1 X95.744 Y107.965 E.00694
G1 X96.401 Y107.938 E.01456
M204 S1000
;WIPE_START
G1 F8640
G1 X96.066 Y108.175 E-.09476
G1 X95.825 Y108.268 E-.0598
G1 X95.744 Y107.965 E-.07235
G1 X96.401 Y107.938 E-.15176
;WIPE_END
G1 E-.42133 F2100
G1 Z.6 F720
G1 X97.478 Y107.497 F10800
G1 Z.2 F720
G1 E.8 F2100
M204 S800
;TYPE:External perimeter
;WIDTH:0.449999
G1 F1200
G1 X97.443 Y107.552 E.00221
G1 X96.921 Y108.05 E.0244
G1 X96.205 Y108.485 E.02838
G1 X95.594 Y108.714 E.02208
G1 X95.312 Y107.646 E.03741
G1 X96.525 Y107.595 E.04109
G1 X97.418 Y107.503 E.03039
M204 S1000
G1 X97.428 Y107.539 F10800
;WIPE_START
G1 F8640
G1 X97.443 Y107.552 E-.01274
G1 X96.921 Y108.05 E-.16648
G1 X96.205 Y108.485 E-.19357
G1 X95.594 Y108.714 E-.15063
G1 X95.332 Y107.724 E-.23658
;WIPE_END
G1 E-.04 F2100
G1 Z.6 F720
G1 X81.946 Y99.725 F10800
G1 Z.2 F720
M73 P1 R84
M73 Q1 S84
G1 E.8 F2100
M204 S800
;TYPE:Perimeter
G1 F1200
G1 X81.237 Y99.655 E.02413
G1 X80.698 Y99.644 E.01824
G1 X80.637 Y98.995 E.02205
G1 X80.537 Y97.448 E.05249
G1 X80.496 Y96.248 E.04064
G1 X80.489 Y94.668 E.05347
G1 X80.517 Y93.507 E.03931
G1 X80.599 Y91.975 E.05192
G1 X80.696 Y90.774 E.04079
G1 X80.855 Y89.287 E.05063
G1 X81.054 Y87.819 E.05013
G1 X81.287 Y86.358 E.05008
G1 X81.571 Y84.859 E.05165
G1 X81.898 Y83.413 E.05017
G1 X82.164 Y82.405 E.03531
G1 X82.476 Y81.37 E.03657
G1 X82.884 Y80.193 E.04216
G1 X83.289 Y79.179 E.03697
G1 X83.768 Y78.155 E.03828
G1 X84.155 Y77.441 E.02748
G1 X84.568 Y76.77 E.02667
G1 X85.021 Y76.125 E.02669
G1 X85.532 Y75.493 E.02749
G1 X85.964 Y75.026 E.02154
G1 X86.565 Y74.46 E.02797
G1 X87.103 Y74.026 E.02339
G1 X87.831 Y73.529 E.02982
G1 X88.467 Y73.165 E.02483
G1 X89.088 Y72.867 E.0233
G1 X89.768 Y72.598 E.02477
G1 X90.608 Y72.346 E.02966
G1 X91.273 Y72.205 E.02302
G1 X92.004 Y72.111 E.02496
G1 X92.701 Y72.08 E.02362
G1 X93.295 Y72.1 E.0201
G1 X93.831 Y72.159 E.01827
G1 X94.368 Y72.258 E.01849
G1 X94.9 Y72.396 E.01858
G1 X95.42 Y72.572 E.0186
G1 X95.926 Y72.786 E.01859
G1 X96.415 Y73.035 E.01857
G1 X96.849 Y73.298 E.01717
G1 X97.292 Y73.612 E.01838
G1 X97.695 Y73.948 E.01779
G1 X98.348 Y74.627 E.03188
G1 X98.686 Y75.067 E.01877
G1 X98.99 Y75.532 E.01882
G1 X99.26 Y76.016 E.01875
G1 X99.496 Y76.515 E.0187
G1 X99.702 Y77.027 E.01865
G1 X99.878 Y77.546 E.01856
G1 X100.027 Y78.069 E.01842
G1 X100.254 Y79.141 E.03708
G1 X100.347 Y79.774 E.02165
G1 X100.468 Y81.118 E.04566
G1 X100.504 Y82.355 E.0419
G1 X100.476 Y83.554 E.04059
G1 X100.411 Y84.578 E.03475
G1 X100.21 Y86.955 E.08073
G1 X100.153 Y88.184 E.04164
G1 X100.16 Y88.858 E.02283
G1 X100.221 Y89.645 E.0267
G1 X100.321 Y90.485 E.02866
G1 X100.486 Y91.327 E.02904
G1 X100.696 Y92.115 E.02759
G1 X100.851 Y92.611 E.01759
G1 X101.076 Y93.207 E.02157
G1 X101.522 Y94.114 E.03421
G1 X101.862 Y94.657 E.02168
G1 X102.264 Y95.153 E.02159
G1 X102.742 Y95.639 E.0231
G1 X102.925 Y95.906 E.01096
G1 X102.972 Y96.137 E.00797
G1 X102.942 Y96.261 E.0043
G1 X102.744 Y96.518 E.01101
G1 X102.492 Y96.652 E.00966
G1 X102.224 Y96.671 E.00907
G1 X101.967 Y96.556 E.00955
G1 X101.528 Y96.171 E.01975
G1 X101.148 Y95.752 E.01918
G1 X100.776 Y95.261 E.02084
G1 X100.455 Y94.753 E.02032
G1 X100.163 Y94.206 E.021
G1 X99.905 Y93.63 E.02139
G1 X99.679 Y93.033 E.02158
G1 X99.499 Y92.472 E.01995
G1 X99.258 Y91.531 E.03287
G1 X99.087 Y90.612 E.03164
G1 X98.983 Y89.774 E.02859
G1 X98.92 Y88.714 E.03594
G1 X98.918 Y88.123 E.02
G1 X98.945 Y87.352 E.02612
G1 X99.168 Y84.536 E.09562
G1 X99.241 Y83.155 E.0468
G1 X99.248 Y81.763 E.04713
G1 X99.184 Y80.547 E.04121
G1 X99.036 Y79.341 E.04115
G1 X98.804 Y78.254 E.03761
G1 X98.629 Y77.681 E.02027
G1 X98.106 Y76.468 E.04471
G1 X97.654 Y75.763 E.02836
G1 X97.41 Y75.445 E.01358
G1 X96.878 Y74.883 E.02618
G1 X96.173 Y74.316 E.03064
G1 X95.485 Y73.923 E.02679
G1 X94.483 Y73.549 E.03621
G1 X93.718 Y73.388 E.02646
G1 X92.593 Y73.316 E.03816
G1 X92.028 Y73.348 E.01915
G1 X91.464 Y73.424 E.01926
G1 X90.904 Y73.541 E.01936
G1 X90.352 Y73.699 E.01945
G1 X89.809 Y73.896 E.01955
G1 X89.278 Y74.133 E.0197
G1 X88.784 Y74.393 E.01888
G1 X88.28 Y74.704 E.02004
G1 X87.819 Y75.032 E.01914
G1 X87.354 Y75.412 E.02034
G1 X86.852 Y75.888 E.02343
G1 X86.472 Y76.296 E.01885
G1 X86.016 Y76.864 E.02467
G1 X85.668 Y77.34 E.01995
G1 X85.346 Y77.846 E.02029
G1 X85.048 Y78.367 E.02033
G1 X84.782 Y78.884 E.01968
G1 X84.438 Y79.632 E.02788
G1 X84.011 Y80.708 E.03916
G1 X83.643 Y81.795 E.03886
G1 X83.258 Y83.135 E.04717
G1 X82.98 Y84.255 E.03905
G1 X82.72 Y85.459 E.04173
G1 X82.428 Y87.042 E.05447
G1 X82.246 Y88.209 E.03999
G1 X82.045 Y89.761 E.05296
G1 X81.882 Y91.417 E.05634
G1 X81.802 Y92.57 E.03911
G1 X81.735 Y94.18 E.05454
G1 X81.722 Y95.37 E.04028
G1 X81.742 Y96.583 E.04106
G1 X81.817 Y98.175 E.05395
G1 X81.941 Y99.666 E.05063
M204 S1000
G1 X82.41 Y100.239 F10800
M204 S800
;TYPE:External perimeter
G1 F1200
G1 X81.953 Y100.137 E.01584
G1 X81.417 Y100.07 E.01829
G1 X80.836 Y100.045 E.01968
G1 X80.33 Y100.072 E.01717
G1 X80.231 Y99.028 E.03551
G1 X80.131 Y97.468 E.0529
G1 X80.089 Y96.256 E.04105
G1 X80.082 Y94.664 E.05388
G1 X80.111 Y93.491 E.03971
G1 X80.192 Y91.948 E.05231
G1 X80.29 Y90.736 E.04117
G1 X80.451 Y89.238 E.051
G1 X80.651 Y87.76 E.05049
G1 X80.886 Y86.288 E.05045
G1 X81.172 Y84.776 E.05209
G1 X81.503 Y83.316 E.05066
G1 X81.773 Y82.294 E.03579
G1 X82.089 Y81.245 E.03709
G1 X82.502 Y80.051 E.04276
G1 X82.916 Y79.017 E.03769
G1 X83.405 Y77.971 E.03908
G1 X83.802 Y77.237 E.02827
G1 X84.228 Y76.546 E.02747
G1 X84.696 Y75.88 E.02757
G1 X85.224 Y75.227 E.02841
G1 X85.674 Y74.739 E.02247
G1 X86.298 Y74.153 E.02898
G1 X86.86 Y73.699 E.02446
G1 X87.615 Y73.184 E.03091
G1 X88.278 Y72.804 E.02587
G1 X88.925 Y72.493 E.02429
G1 X89.635 Y72.213 E.02584
G1 X90.507 Y71.951 E.03082
G1 X91.205 Y71.804 E.02414
G1 X91.969 Y71.705 E.02609
G1 X92.699 Y71.672 E.02474
G1 X93.324 Y71.693 E.02116
G1 X93.89 Y71.756 E.0193
G1 X94.457 Y71.86 E.01949
G1 X95.016 Y72.006 E.01957
G1 X95.565 Y72.192 E.01959
G1 X96.098 Y72.416 E.01959
G1 X96.613 Y72.679 E.01957
G1 X97.072 Y72.957 E.01817
G1 X97.54 Y73.289 E.01943
G1 X97.973 Y73.65 E.01908
G1 X98.657 Y74.361 E.0334
G1 X99.018 Y74.831 E.02006
G1 X99.339 Y75.321 E.01984
G1 X99.622 Y75.83 E.01969
G1 X99.87 Y76.352 E.01957
G1 X100.084 Y76.885 E.01944
G1 X100.267 Y77.425 E.01929
G1 X100.421 Y77.967 E.01908
G1 X100.656 Y79.073 E.03829
G1 X100.751 Y79.726 E.02233
G1 X100.875 Y81.093 E.04646
G1 X100.911 Y82.354 E.04268
G1 X100.883 Y83.571 E.04123
G1 X100.817 Y84.608 E.03517
G1 X100.616 Y86.989 E.08088
G1 X100.56 Y88.18 E.04035
G1 X100.567 Y88.836 E.02221
G1 X100.625 Y89.597 E.02584
G1 X100.72 Y90.408 E.02761
G1 X100.88 Y91.227 E.02827
G1 X101.031 Y91.82 E.0207
G1 X101.232 Y92.468 E.02297
G1 X101.449 Y93.043 E.02081
G1 X101.869 Y93.9 E.0323
G1 X102.18 Y94.402 E.02
G1 X102.702 Y95.018 E.02732
G1 X103.142 Y95.486 E.02175
G1 X103.353 Y95.875 E.015
G1 X103.377 Y96.174 E.01013
G1 X103.313 Y96.437 E.00918
G1 X103.071 Y96.768 E.01385
G1 X102.745 Y96.998 E.01353
G1 X102.38 Y97.084 E.01269
G1 X102.051 Y97.052 E.01116
G1 X101.657 Y96.836 E.01522
G1 X101.238 Y96.457 E.01914
G1 X100.834 Y96.012 E.02034
G1 X100.441 Y95.493 E.02203
G1 X100.103 Y94.958 E.02141
G1 X99.798 Y94.385 E.02198
G1 X99.528 Y93.785 E.02226
G1 X99.294 Y93.168 E.02236
G1 X99.108 Y92.585 E.02071
G1 X98.861 Y91.619 E.03373
G1 X98.685 Y90.675 E.03252
G1 X98.577 Y89.811 E.02945
G1 X98.513 Y88.727 E.03677
G1 X98.51 Y88.117 E.02065
G1 X98.538 Y87.329 E.0267
G1 X98.762 Y84.504 E.09592
G1 X98.834 Y83.156 E.04567
G1 X98.841 Y81.784 E.04646
G1 X98.779 Y80.597 E.04024
G1 X98.703 Y79.973 E.02129
G1 X98.534 Y78.935 E.03558
G1 X98.413 Y78.37 E.01956
G1 X98.255 Y77.84 E.01873
G1 X97.78 Y76.718 E.04123
G1 X97.104 Y75.714 E.04096
G1 X96.62 Y75.198 E.02396
G1 X95.97 Y74.669 E.02835
G1 X95.279 Y74.277 E.0269
G1 X94.399 Y73.948 E.03181
G1 X93.634 Y73.787 E.02646
G1 X92.614 Y73.723 E.03457
G1 X92.081 Y73.752 E.0181
G1 X91.546 Y73.822 E.01824
G1 X91.015 Y73.933 E.01836
G1 X90.49 Y74.082 E.01847
G1 X89.974 Y74.269 E.01859
G1 X89.467 Y74.493 E.01877
G1 X88.997 Y74.74 E.01796
G1 X88.515 Y75.036 E.01913
G1 X88.076 Y75.348 E.01823
G1 X87.63 Y75.71 E.01945
G1 X87.147 Y76.169 E.02256
G1 X86.783 Y76.558 E.01803
G1 X86.344 Y77.105 E.02373
